/* XPM */
static const char *bitcoin128[] = {
/* columns rows colors chars-per-pixel */
"128 128 176 2 ",
"   c #07198C",
".  c #071A8D",
"X  c #06198C",
"o  c #071A8D",
"O  c #07198C",
"+  c #071A8E",
"@  c #07198C",
"#  c #07198D",
"$  c #07198D",
"%  c #07188A",
"&  c #07198D",
"*  c #071A8D",
"=  c #07198C",
"-  c #07198D",
";  c #07198C",
":  c #07198D",
">  c #07198A",
",  c #06198C",
"<  c #07198D",
"1  c #071A8E",
"2  c #071B90",
"3  c #071A8D",
"4  c #061A8D",
"5  c #071A8D",
"6  c #061A8E",
"7  c #01CEFC",
"8  c #07198A",
"9  c #07158B",
"0  c #07198C",
"q  c #081A8D",
"w  c #07198C",
"e  c #07198D",
"r  c #081A8E",
"t  c #071689",
"y  c #07198C",
"u  c #071A8D",
"i  c #071A8E",
"p  c #039ADB",
"a  c #01CFFC",
"s  c #02CFFC",
"d  c #01CEFC",
"f  c #02D0FC",
"g  c #02D0FD",
"h  c #01CEFC",
"j  c #01CBFB",
"k  c #01CEFC",
"l  c #02A4E3",
"z  c #01CDFC",
"x  c #01D0FD",
"c  c #02A5E4",
"v  c #01CEFC",
"b  c #01CDFC",
"n  c #01CEFC",
"m  c #01CEFC",
"M  c #02CEFC",
"N  c #01CDFC",
"B  c #01CDFC",
"V  c #01CEFC",
"C  c #01CEFC",
"Z  c #01D0FD",
"A  c #01CFFD",
"S  c #01CEFC",
"D  c #01CDFC",
"F  c #01CDFC",
"G  c #01CDFC",
"H  c #0BCEFB",
"J  c #01CEFC",
"K  c #01CFFC",
"L  c #00C9FC",
"P  c #1ACFFA",
"I  c #11CEFB",
"U  c #00D4FF",
"Y  c #1ED3FB",
"T  c #11D1FB",
"R  c #01CEFD",
"E  c #2ED6FB",
"W  c #23D4FB",
"Q  c #3BD7FB",
"!  c #33D7FC",
"~  c #4EDBFC",
"^  c #44D9FB",
"/  c #5DDEFB",
"(  c #65DFFB",
")  c #6FE3FC",
"_  c #7CE4FC",
"`  c #76E2FB",
"'  c #02CDFC",
"]  c #01CFFC",
"[  c #01CFFC",
"{  c #01CFFD",
"}  c #01CEFC",
"|  c #02CFFC",
" . c #02CFFC",
".. c #01D0FD",
"X. c #84E4FC",
"o. c #A0EAFB",
"O. c #A4ECFC",
"+. c #ADECFB",
"@. c #B7EFFB",
"#. c #BFF0FA",
"$. c #C8F3FC",
"%. c #D5F4FB",
"&. c #E4F7FB",
"*. c #EEFAFB",
"=. c #F7FAFB",
"-. c #FDFCFB",
";. c #071A8D",
":. c #071A8E",
">. c #07198D",
",. c #061A8F",
"<. c #07198D",
"1. c #071A8D",
"2. c #071A8E",
"3. c #06198D",
"4. c #071A8E",
"5. c #071A8E",
"6. c #071A8E",
"7. c #071A8E",
"8. c #07198D",
"9. c #071A8D",
"0. c #071A8D",
"q. c #0463BC",
"w. c #02CFFC",
"e. c #02CEFB",
"r. c #01CFFC",
"t. c #02D0FC",
"y. c #02CEFC",
"u. c #02D0FD",
"i. c #02CFFC",
"p. c #02CFFC",
"a. c #02D7FD",
"s. c #02D0FD",
"d. c #02CFFC",
"f. c #03D0FD",
"g. c #02D0FC",
"h. c #02CFFC",
"j. c #03D0FD",
"k. c #02CFFC",
"l. c #06198D",
"z. c #06198D",
"x. c #06198D",
"c. c #061A8F",
"v. c #071A8D",
"b. c #06198E",
"n. c #061A8F",
"m. c #062698",
"M. c #03D1FC",
"N. c #02CDFA",
"B. c #02D0FC",
"V. c #02D1FC",
"C. c #03D0FC",
"Z. c #02CFFC",
"A. c #06198E",
"S. c #061A8F",
"D. c #071A92",
"F. c #061A8E",
"G. c #07198E",
"H. c #03D0FB",
"J. c #03D3FC",
"K. c #02D2FC",
"L. c #02D1FC",
"P. c #061990",
"I. c #061A8F",
"U. c #061A90",
"Y. c #0652AF",
"T. c #03D4FC",
"R. c #071A8D",
"E. c #061D95",
"W. c #054BAD",
"Q. c #06198F",
"!. c #071A8D",
"~. c #071A8E",
"^. c None",
"/. c #01CFFE",
"(. c #01D0FE",
"). c #0647A8",
/* pixels */
"^.^.^.^.^.^.^.^.^.^.^.^.^.^.^.^.^.^.^.^.^.^.^.^.^.^.^.^.^.^.^.^.^.^.^.^.^.^.^.^.^.^.^.^.^.^.^.^.^.^.^.^.^.^.^.^.^.^.^.^.^.^.^.^.^.^.^.^.^.^.^.^.^.^.^.^.^.^.^.^.^.^.^.^.^.^.^.^.^.^.^.^.^.^.^.^.^.^.^.^.^.^.^.^.^.^.^.^.^.^.^.^.^.^.^.^.^.^.^.^.^.^.^.^.^.^.^.^.",
"^.^.^.^.^.^.^.^.^.^.^.^.^.^.^.^.^.^.^.^.^.^.^.^.^.^.^.^.^.^.^.^.^.^.^.^.^.^.^.^.^.^.^.^.^.^.^.^.^.^.^.^.^.^.^.^.^.^.^.^.^.^.^.^.^.^.^.^.^.^.^.^.^.^.^.^.^.^.^.^.^.^.^.^.^.^.^.^.^.^.^.^.^.^.^.^.^.^.^.^.^.^.^.^.^.^.^.^.^.^.^.^.^.^.^.^.^.^.^.^.^.^.^.^.^.^.^.^.",
"^.^.^.^.^.^.^.^.^.^.^.^.^.^.^.^.^.^.^.^.^.^.^.^.^.^.^.^.^.^.^.^.^.^.^.^.^.^.^.^.^.^.^.^.^.^.^.^.^.^.^.^.^.^.^.^.^.^.^.^.^.^.^.^.^.^.^.^.^.^.^.^.^.^.^.^.^.^.^.^.^.^.^.^.^.^.^.^.^.^.^.^.^.^.^.^.^.^.^.^.^.^.^.^.^.^.^.^.^.^.^.^.^.^.^.^.^.^.^.^.^.^.^.^.^.^.^.^.",
"^.^.^.^.^.^.^.^.^.^.^.^.^.^.^.^.^.^.^.^.^.^.^.^.^.^.^.^.^.^.^.^.^.^.^.^.^.^.^.^.^.^.^.^.^.^.^.^.^.^.^.^.^.^.^.^.^.^.^.^.^.^.^.^.^.^.^.^.^.^.^.^.^.^.^.^.^.^.^.^.^.^.^.^.^.^.^.^.^.^.^.^.^.^.^.^.^.^.^.^.^.^.^.^.^.^.^.^.^.^.^.^.^.^.^.^.^.^.^.^.^.^.^.^.^.^.^.^.",
"^.^.^.^.^.^.^.^.^.^.^.^.^.^.^.^.^.^.^.^.^.^.^.^.^.^.^.^.^.^.^.^.^.^.^.^.^.^.^.^.^.^.^.^.^.^.^.^.^.^.^.^.^.^.^.^.^.^.^.^.^.^.^.^.^.^.^.^.^.^.^.^.^.^.^.^.^.^.^.^.^.^.^.^.^.^.^.^.^.^.^.^.^.^.^.^.^.^.^.^.^.^.^.^.^.^.^.^.^.^.^.^.^.^.^.^.^.^.^.^.^.^.^.^.^.^.^.^.",
"^.^.^.^.^.^.^.^.^.^.^.^.^.^.^.^.^.^.^.^.^.^.^.^.^.^.^.^.^.^.^.^.^.^.^.^.^.^.^.^.^.^.^.^.^.^.^.^.^.^.^.^.^.^.^.^.^.^.^.^.^.^.^.^.^.^.^.^.^.^.^.^.^.^.^.^.^.^.^.^.^.^.^.^.^.^.^.^.^.^.^.^.^.^.^.^.^.^.^.^.^.^.^.^.^.^.^.^.^.^.^.^.^.^.^.^.^.^.^.^.^.^.^.^.^.^.^.^.",
"^.^.^.^.^.^.^.^.^.^.^.^.^.^.^.^.^.^.^.^.^.^.^.^.^.^.^.^.^.^.^.^.^.^.^.^.^.^.^.^.^.^.^.^.^.^.^.^.^.^.^.^.^.^.^.^.^.^.^.^.^.^.^.^.^.^.^.^.^.^.^.^.^.^.^.^.^.^.^.^.^.^.^.^.^.^.^.^.^.^.^.^.^.^.^.^.^.^.^.^.^.^.^.^.^.^.^.^.^.^.^.^.^.^.^.^.^.^.^.^.^.^.^.^.^.^.^.^.",
"^.^.^.^.^.^.^.^.^.^.^.^.^.^.^.^.^.^.^.^.^.^.^.^.^.^.^.^.^.^.^.^.^.^.^.^.^.^.^.^.^.^.^.^.^.^.^.^.^.^.^.^.^.^.^.^.R.R.^.^.^.^.^.^.^.^.^.^.^.^.R.R.R.^.^.^.^.^.^.^.^.^.^.^.^.^.^.^.^.^.^.^.^.^.^.^.^.^.^.^.^.^.^.^.^.^.^.^.^.^.^.^.^.^.^.^.^.^.^.^.^.^.^.^.^.^.^.^.",
"^.^.^.^.^.^.^.^.^.^.^.^.^.^.^.^.^.^.^.^.^.^.^.^.^.^.^.^.^.^.^.^.^.^.^.^.^.^.^.^.^.^.^.^.^.^.^.^.^.^.R.R.^.^.^.^.^.^.^.^.^.P.D.D.D.D.I.R.^.^.^.^.^.^.^.^.^.R.^.^.^.^.^.^.^.^.^.^.^.^.^.^.^.^.^.^.^.^.^.^.^.^.^.^.^.^.^.^.^.^.^.^.^.^.^.^.^.^.^.^.^.^.^.^.^.^.^.^.",
"^.^.^.^.^.^.^.^.^.^.^.^.^.^.^.^.^.^.^.^.^.^.^.^.^.^.^.^.^.^.^.^.^.^.^.^.^.^.^.^.^.^.^.^.^.^.R.R.^.^.^.^.^.D.z.<.0.< ; # O   i i i i   O $ ; * 4 2.n.G.^.^.^.^.^.R.^.^.^.^.^.^.^.^.^.^.^.^.^.^.^.^.^.^.^.^.^.^.^.^.^.^.^.^.^.^.^.^.^.^.^.^.^.^.^.^.^.^.^.^.^.^.^.",
"^.^.^.^.^.^.^.^.^.^.^.^.^.^.^.^.^.^.^.^.^.^.^.^.^.^.^.^.^.^.^.^.^.^.^.^.^.^.^.^.^.^.^.^.R.^.^.^.^.b.2.< # y 0 0 0 0 0 0 0 0 0 0 0 0 0 0 0 0 0 0 0 0 t O * >.v.R.^.^.^.^.^.^.^.^.^.^.^.^.^.^.^.^.^.^.^.^.^.^.^.^.^.^.^.^.^.^.^.^.^.^.^.^.^.^.^.^.^.^.^.^.^.^.^.^.",
"^.^.^.^.^.^.^.^.^.^.^.^.^.^.^.^.^.^.^.^.^.^.^.^.^.^.^.^.^.^.^.^.^.^.^.^.^.^.^.^.^.R.^.^.^.E.n.4 $ t 0 0 0 0 0 8 8 8 8 8 0 0 0 0 0 0 0 0 0 0 8 8 8 0 0 0 0 q 0 O < 5.P.^.^.^.R.^.^.^.^.^.^.^.^.^.^.^.^.^.^.^.^.^.^.^.^.^.^.^.^.^.^.^.^.^.^.^.^.^.^.^.^.^.^.^.^.^.",
"^.^.^.^.^.^.^.^.^.^.^.^.^.^.^.^.^.^.^.^.^.^.^.^.^.^.^.^.^.^.^.^.^.^.^.^.^.^.^.R.^.^.^.v.4 O 0 0 0 0 8 8 8 0 0 0 0 0 0 0 0 0 8 8 8 8 0 0 0 0 0 0 0 0 0 0 8 8 0 0 0 0 i 1 5.R.^.^.^.^.^.^.^.^.^.^.^.^.^.^.^.^.^.^.^.^.^.^.^.^.^.^.^.^.^.^.^.^.^.^.^.^.^.^.^.^.^.^.",
"^.^.^.^.^.^.^.^.^.^.^.^.^.^.^.^.^.^.^.^.^.^.^.^.^.^.^.^.^.^.^.^.^.^.^.^.^.R.^.^.P.2.# 8 0 0 0 8 8 0 0 0 0 8 8 8 0 0 q 0 0 0 0 0 0 0 0 0 0 0 0 0 0 8 8 0 0 0 0 0 8 0 0 0 0 O >.D.^.^.R.^.^.^.^.^.^.^.^.^.^.^.^.^.^.^.^.^.^.^.^.^.^.^.^.^.^.^.^.^.^.^.^.^.^.^.^.^.",
"^.^.^.^.^.^.^.^.^.^.^.^.^.^.^.^.^.^.^.^.^.^.^.^.^.^.^.^.^.^.^.^.^.^.^.^.^.^.I.0.X 0 0 0 8 0 0 0 0 8 8 0 0 0 0 0 0 t   O # ; * * * * : ; # O   8 0 0 0 0 q 8 8 0 0 0 0 8 0 0 0 y 4 S.^.^.R.^.^.^.^.^.^.^.^.^.^.^.^.^.^.^.^.^.^.^.^.^.^.^.^.^.^.^.^.^.^.^.^.^.^.^.",
"^.^.^.^.^.^.^.^.^.^.^.^.^.^.^.^.^.^.^.^.^.^.^.^.^.^.^.^.^.^.^.^.^.^.^.^.P.>.  0 0 8 8 0 0 0 8 0 0 0 0 0   ; 4 2.z.S.P.^.^.^.^.^.^.^.^.^.^.^.I.b.n.>.1 $ t 0 0 q 0 8 0 0 0 0 8 0 0 w 4 D.^.^.R.^.^.^.^.^.^.^.^.^.^.^.^.^.^.^.^.^.^.^.^.^.^.^.^.^.^.^.^.^.^.^.^.^.",
"^.^.^.^.^.^.^.^.^.^.^.^.^.^.^.^.^.^.^.^.^.^.^.^.^.^.^.^.^.^.^.^.R.^.^.<.X 0 0 8 0 0 0 8 8 0 0 0 i * >.z.P.^.^.^.^.^.^.^.^.R.^.^.^.^.^.^.^.^.^.^.^.^.^.^.S.<.6 O 0 0 0 0 0 0 0 q 8 0 0 i 0.P.^.^.^.^.^.^.^.^.^.^.^.^.^.^.^.^.^.^.^.^.^.^.^.^.^.^.^.^.^.^.^.^.^.^.",
"^.^.^.^.^.^.^.^.^.^.^.^.^.^.^.^.^.^.^.^.^.^.^.^.^.^.^.^.^.^.^.^.^.b.; 0 0 8 0 0 0 0 0 0 0 y * 6.D.^.^.^.^.E.E.R.^.^.^.^.^.^.^.^.^.^.^.^.^.^.^.^.^.R.R.^.^.^.^.R.z.4 X 0 0 0 8 0 0 0 8 0 0 O 5.^.^.^.^.^.^.^.^.^.^.^.^.^.^.^.^.^.^.^.^.^.^.^.^.^.^.^.^.^.^.^.^.^.",
"^.^.^.^.^.^.^.^.^.^.^.^.^.^.^.^.^.^.^.^.^.^.^.^.^.^.^.^.^.^.^.R.0.8 0 8 0 0 0 0 0 0 0 $ >.D.^.^.^.^.^.^.^.^.^.^.^.^.^.^.^.^.^.^.^.^.^.^.^.^.^.^.^.^.^.^.^.^.R.^.^.^.P.6.; 0 0 0 8 0 0 0 8 0 0 < P.^.R.^.^.^.^.^.^.^.^.^.^.^.^.^.^.^.^.^.^.^.^.^.^.^.^.^.^.^.^.^.",
"^.^.^.^.^.^.^.^.^.^.^.^.^.^.^.^.^.^.^.^.^.^.^.^.^.^.^.^.R.^.b.$ 0 0 8 0 0 0 0 0 0 ; 5.^.^.^.P.5.4 ; # # : 9.z.^.^.^.^.^.^.^.^.^.^.^.^.^.^.^.^.^.^.^.^.^.^.^.^.^.R.R.^.^.^.z.* 8 0 8 8 0 0 0 8 0 O n.^.R.^.^.^.^.^.^.^.^.^.^.^.^.^.^.^.^.^.^.^.^.^.^.^.^.^.^.^.^.",
"^.^.^.^.^.^.^.^.^.^.^.^.^.^.^.^.^.^.^.^.^.^.^.^.^.^.^.^.^.>.t 0 8 0 0 0 8 0 0 ; z.^.^.^.^.2.O 0 0 0 0 0 0 0 0 # 5.^.^.^.^.^.^.^.^.^.^.^.^.^.^.^.^.^.^.^.^.^.^.^.^.^.^.R.^.^.^.v.; 0 0 0 0 0 0 8 0 0 0.^.^.^.^.^.^.^.^.^.^.^.^.^.^.^.^.^.^.^.^.^.^.^.^.^.^.^.^.^.",
"^.^.^.^.^.^.^.^.^.^.^.^.^.^.^.^.^.^.^.^.^.^.^.^.^.R.^.P.< 0 0 0 0 0 0 0 0 O 5.^.^.R.^.D.; 0 q 0 8 0 8 8 8 8 0 0 0 < ^.^.^.^.^.^.^.^.^.^.^.^.^.^.^.^.^.^.^.^.^.^.^.^.^.^.^.R.^.^.^.5.O 0 0 8 0 0 0 8 0 : I.^.^.^.^.^.^.^.^.^.^.^.^.^.^.^.^.^.^.^.^.^.^.^.^.^.^.^.",
"^.^.^.^.^.^.^.^.^.^.^.^.^.^.^.^.^.^.^.^.^.^.^.^.R.^.S.# 0 8 0 0 0 8 0 t 9.E.^.^.R.^.G.O 0 8 0 0 0 0 0 0 0 0 0 8 8 0 * ^.^.^.^.^.^.^.^.^.^.^.^.^.^.^.^.^.^.^.^.^.^.^.^.^.^.^.^.^.^.^.E.9.8 0 8 0 0 0 8 0 O b.^.R.^.^.^.^.^.^.^.^.^.^.^.^.^.^.^.^.^.^.^.^.^.^.^.^.",
"^.^.^.^.^.^.^.^.^.^.^.^.^.^.^.^.^.^.^.^.^.^.^.R.^.z.  0 8 0 0 0 8 0 # b.^.^.^.^.^.P.$ 0 8 0 0 0 0 0 0 0 0 0 0 0 0 8 0 4 ^.^.^.^.^.^.^.^.^.^.^.^.^.^.^.^.^.^.^.^.^.^.^.^.^.^.^.^.^.^.^.^.v.$ 0 8 0 0 0 8 0 i n.^.R.^.^.^.^.^.^.^.^.^.^.^.^.^.^.^.^.^.^.^.^.^.^.^.",
"^.^.^.^.^.^.^.^.^.^.^.^.^.^.^.^.^.^.^.^.^.^.R.^.5.w 0 8 0 0 0 0 0 0.^.^.R.^.^.^.^.4 0 8 0 0 0 0 0 0 0 0 0 0 0 0 0 0 8 0 5.^.^.^.^.^.^.^.^.^.^.^.^.^.^.^.^.^.^.^.^.^.^.^.^.^.^.^.^.^.^.R.^.E.4 0 0 0 0 0 8 0 t 5.^.R.^.^.^.^.^.^.^.^.^.^.^.^.^.^.^.^.^.^.^.^.^.^.",
"^.^.^.^.^.^.^.^.^.^.^.^.^.^.^.^.^.^.^.^.^.R.^.<.8 0 8 0 0 8 0   5.^.R.^.^.^.^.^.b.w 0 0 0 0 0 0 0 0 0 0 0 0 0 0 0 0 8 0 ; ^.^.^.^.^.^.^.^.^.^.^.^.^.^.^.^.^.^.^.^.^.^.^.^.^.^.^.^.^.^.^.^.^.^.2.t 0 8 0 0 0 0 8 <.^.R.^.^.^.^.^.^.^.^.^.^.^.^.^.^.^.^.^.^.^.^.^.",
"^.^.^.^.^.^.^.^.^.^.^.^.^.^.^.^.^.^.^.^.R.^.<.0 0 0 0 0 8 0 # S.^.R.^.^.^.^.R.^.0.0 8 0 0 0 0 0 0 0 0 0 0 0 0 0 0 0 0 0 0 v.^.^.^.^.^.^.^.^.^.^.^.^.^.^.^.^.^.^.^.^.^.E.E.^.^.^.E.!.^.^.^.^.R.^.v.X 0 8 0 0 0 0 0 <.^.R.^.^.^.^.^.^.^.^.^.^.^.^.^.^.^.^.^.^.^.^.",
"^.^.^.^.^.^.^.^.^.^.^.^.^.^.^.^.^.^.^.R.^.5.0 0 0 0 0 8 0 * E.^.^.^.^.^.^.^.^.^.; 0 8 0 0 0 0 0 0 0 0 0 0 0 0 0 0 0 0 8 0 >.^.R.^.^.^.^.^.^.^.^.^.^.^.^.^.^.^.^.^.^.^.^.^.^.^.^.^.^.^.^.^.^.^.R.^.S.# 0 8 0 0 0 0 8 5.^.R.^.^.^.^.^.^.^.^.^.^.^.^.^.^.^.^.^.^.^.",
"^.^.^.^.^.^.^.^.^.^.^.^.^.^.^.^.^.^.^.^.n.t 0 8 0 0 8 0 < ^.^.^.^.^.^.^.^.^.^.P.  0 0 0 0 0 0 0 0 0 0 0 0 0 0 0 0 0 0 8 0 < ^.R.^.^.^.^.^.^.^.^.^.^.^.^.^.^.^.^.^.^.H.h.f [ A m | s.Z.^.^.^.^.^.^.^.P.; 0 8 0 0 0 0 w z.^.^.^.^.^.^.^.^.^.^.^.^.^.^.^.^.^.^.^.^.",
"^.^.^.^.^.^.^.^.^.^.^.^.^.^.^.^.^.^.^.b.i 0 0 0 0 8 0 4 ^.^.^.^.^.^.^.^.^.^.^.S.w 0 0 0 0 0 0 0 0 0 0 0 0 0 0 0 0 0 0 8 0 : ^.R.^.^.^.^.^.^.^.^.^.^.^.^.^.^.^.^.I.7 n G G G G G G U G [ Z.^.^.^.^.^.^.E.; 0 8 0 0 8 0 X S.^.^.^.^.^.^.^.^.^.^.^.^.^.^.^.^.^.^.^.",
"^.^.^.^.^.^.^.^.^.^.^.^.^.^.^.^.^.^.I.O 0 8 0 0 8 0 < ^.^.^.^.^.^.^.^.^.^.^.^.S.w 0 0 0 0 0 0 0 0 0 0 0 0 0 0 0 0 0 0 8 0 * ^.R.^.^.^.^.^.^.^.^.^.^.^.^.^.!.^.B.C G G G F L G D G D G G D p.^.^.^.^.^.^.E.; 0 8 0 0 8 0 ; ^.^.^.^.^.^.^.^.^.^.^.^.^.^.^.^.^.^.^.",
"^.^.^.^.^.^.^.^.^.^.^.^.^.^.^.^.^.^.: 0 8 0 0 8 0 * ^.^.^.^.^.^.^.^.^.^.^.^.^.P.  0 0 0 0 0 0 0 0 0 0 0 0 0 0 0 0 0 0 8 0 4 ^.R.^.^.^.^.^.^.^.^.^.^.^.^.E.^.V.J G D G G G G G G G G G D L G s.^.R.^.^.^.^.P.# 0 8 0 0 8 0 4 ^.R.^.^.^.^.^.^.^.^.^.^.^.^.^.^.^.^.",
"^.^.^.^.^.^.^.^.^.^.^.^.^.^.^.R.^.0.0 8 0 0 8 0 ; R.^.^.^.^.^.^.^.^.^.^.^.^.^.^.; 0 0 0 0 0 0 0 0 0 0 0 0 0 0 0 0 0 0 8 0 <.^.^.^.^.^.^.^.^.^.^.^.^.^.^.^.M.n G D G G G G G L G G G G G G F U k.^.^.^.^.^.^.S.X q 0 0 0 8 0 2.^.^.^.^.^.^.^.^.^.^.^.^.^.^.^.^.^.",
"^.^.^.^.^.^.^.^.^.^.^.^.^.^.R.^.n.0 0 0 0 0 0 X S.^.^.^.^.^.^.^.^.^.^.^.^.^.R.^.;.0 8 0 0 0 0 0 0 0 0 0 0 0 0 0 0 0 0 0 i D.^.^.^.^.^.^.^.^.^.^.^.^.^.^.^.[ G D G G G G G W ^ E G G G G G G G C I.^.^.^.^.^.^.z.t 0 0 0 0 0 i b.^.^.^.^.^.^.^.^.^.^.^.^.^.^.^.^.",
"^.^.^.^.^.^.^.^.^.^.^.^.^.^.^.P.O 0 0 0 0 0 8 n.^.^.^.^.^.^.^.^.^.^.^.^.^.^.^.^.S.y 0 0 0 0 0 0 0 0 0 0 0 0 0 0 0 0 8 0 4 ^.R.^.^.^.^.^.^.^.^.^.^.^.^.^.e.G L G G G G E @.=.-.=.%.~ L U G G D U p.^.E.^.^.^.R.^.>.0 8 0 0 8 0 ; ^.^.^.^.^.^.^.^.^.^.^.^.^.^.^.^.",
"^.^.^.^.^.^.^.^.^.^.^.^.^.R.^.4 0 8 0 0 0 0 >.^.R.^.^.^.^.^.^.^.^.^.^.^.^.^.^.^.^.0.0 8 0 0 0 0 0 0 0 0 0 0 0 0 0 8 0 X D.^.^.^.^.^.^.^.^.^.^.^.^.^.^.^.| G D G G G Q *.-.=.=.=.-.-./ G G G D G | ^.^.^.^.^.^.^.^.* 0 8 0 0 8 0 >.^.^.^.^.^.^.^.^.^.^.^.^.^.^.^.",
"^.^.^.^.^.^.^.^.^.^.^.^.^.^.z.8 0 0 0 8 0 ; ^.^.^.^.^.^.^.^.^.^.^.^.^.^.^.^.^.^.^.^.: 0 8 0 0 0 0 0 0 0 0 0 0 0 8 0 t n.^.^.^.^.^.^.^.^.^.^.^.^.^.^.^.P.z G G G G L $.-.=.=.=.=.=.-.*.P G G G G n I.^.^.^.^.^.^.^.D.X 0 0 0 0 0   D.^.^.^.^.^.^.^.^.^.^.^.^.^.^.",
"^.^.^.^.^.^.^.^.^.^.^.^.^.^.; 0 8 0 0 0 y b.^.^.^.^.^.^.^.^.^.^.^.^.^.^.^.^.^.^.^.^.P.; 0 0 0 0 0 0 0 0 0 0 0 0 0 w 5.^.^.^.^.^.^.^.^.^.^.^.^.^.^.^.^.Z.L G G G L ^ -.=.=.=.=.-.=.=.-.( L G G G D M.^.^.^.^.^.^.^.^.5.0 0 0 0 8 0 4 ^.^.^.^.^.^.^.^.^.^.^.^.^.^.",
"^.^.^.^.^.^.^.^.^.^.^.^.^.<.0 0 0 0 8 0 >.^.R.^.^.^.^.^.^.^.^.^.^.^.^.^.^.^.^.^.^.^.^.^.4 0 0 0 0 0 0 0 0 0 0 0 # b.^.^.^.^.^.^.^.^.^.^.^.^.^.^.^.^.^.V.G L G G L ) -.=.=.-.-.-.=.=.-.X.L G G G U B.^.^.^.^.^.^.^.^.^.< 0 0 0 0 0 t b.^.^.^.^.^.^.^.^.^.^.^.^.^.",
"^.^.^.^.^.^.^.^.^.^.^.^.R.$ 0 0 0 0 0 # ^.^.^.^.^.^.^.^.^.^.^.^.^.^.^.^.^.^.^.^.^.^.^.^.^.O 0 0 0 0 0 0 0 0 0 0 n.^.R.^.^.^.^.^.^.^.^.^.^.^.^.^.^.^.^.V.G L G G L ) -.=.-.-.-.-.=.=.-.` L G G G U Z.^.^.^.^.^.^.^.^.^.S.  0 0 0 q 0 * ^.^.^.^.^.^.^.^.^.^.^.^.^.",
"^.^.^.^.^.^.^.^.^.^.R.^.2.0 0 0 0 0 0 5.^.R.^.^.^.^.^.^.^.^.^.^.^.^.^.^.^.^.^.^.^.^.^.^.R.O 0 0 0 0 0 0 0 0 0 0 n.^.^.^.^.^.^.^.^.^.^.^.^.^.^.^.^.!.^.p.G L G G G E -.-.=.=.-.=.=.=.-.! G G G G R L.^.^.^.^.^.^.^.^.R.^.0.0 8 0 0 0 8 z.^.^.^.^.^.^.^.^.^.^.^.^.",
"^.^.^.^.^.^.^.^.^.^.^.^.# 0 0 0 8 0 ; ^.^.^.^.^.^.^.^.^.^.^.^.^.^.^.^.^.^.^.^.^.^.^.^.^.^.O 0 0 0 0 0 0 0 0 0 0 n.^.^.^.^.^.^.^.^.^.^.^.^.^.^.^.^.^.h G G G G G G G O.-.=.=.=.=.=.-.O.L G G G G A ^.^.^.^.^.^.^.^.^.^.^.P.O 0 0 0 0 0 * ^.^.^.^.^.^.^.^.^.^.^.^.",
"^.^.^.^.^.^.^.^.^.R.^.5.0 8 0 0 0 0 5.^.R.^.^.^.^.^.^.^.^.^.^.^.^.^.^.^.^.^.^.^.^.^.^.^.^.O 0 0 0 0 0 0 0 0 0 0 n.^.^.^.^.^.^.^.^.^.^.^.^.^.E.^.L.' G D G G G G G G H @.-.-.-.-.-.+.H G G G D U s.^.!.^.^.^.^.^.^.^.^.R.^.>.0 8 0 0 0 t b.^.^.^.^.^.^.^.^.^.^.^.",
"^.^.^.^.^.^.^.^.^.^.^.: 0 8 0 0 0 ; ^.^.^.^.^.^.^.^.^.^.^.^.^.^.^.^.^.^.^.^.^.^.^.^.^.^.^.O 0 0 0 0 0 0 0 0 0 0 n.^.^.^.^.^.^.^.^.^.^.^.^.E.^.B.C G D G G G G G G G G G / O.@.O.~ G G G G G G R L.^.^.^.^.^.^.^.^.^.^.^.^.P.X 0 0 0 8 0 4 ^.R.^.^.^.^.^.^.^.^.^.",
"^.^.^.^.^.^.^.^.^.^.b.t 0 0 0 0 0 <.^.^.^.^.^.^.^.^.^.^.^.^.^.^.^.^.^.^.^.^.^.^.^.^.^.^.^.O 0 0 0 0 0 0 0 0 q 0 n.^.^.^.^.^.^.^.^.^.^.^.^.^.p.J G D G G G G G G G G G G L L G L L G G G G D G y.^.^.^.^.^.^.^.^.^.^.^.^.R.^.0.0 8 q q 0 O P.^.^.^.^.^.^.^.^.^.^.",
"^.^.^.^.^.^.^.^.R.^.0.0 8 0 0 0 O R.^.^.^.^.^.^.^.^.^.^.^.^.^.^.^.^.^.^.^.^.^.^.^.^.^.^.^.O 0 0 0 0 0 0 0 0 0 0 n.^.^.^.^.^.^.^.^.^.E.^.E.f G D L G G G G G G G G G G G G G G G G G G G D G | ^.^.^.^.^.^.^.^.^.^.^.^.^.^.^.G.y 0 0 0 0 0 <.^.^.^.^.^.^.^.^.^.^.",
"^.^.^.^.^.^.^.^.^.^.$ 0 0 0 8 0 4 ^.R.^.^.^.^.^.^.^.^.^.^.^.^.^.^.^.^.^.^.^.^.^.^.^.^.^.^.O 0 0 0 0 0 0 0 0 0 0 n.^.^.^.^.^.^.^.^.!.^.Z.M G D G G G G G G G G G G G D G G G G G G L D L G | !.^.^.^.^.^.^.^.^.^.^.^.^.^.^.R.^.* 0 8 0 0 0 * ^.^.^.^.^.^.^.^.^.^.",
"^.^.^.^.^.^.^.^.^.z.0 0 0 0 0 8 b.^.^.^.^.^.^.^.^.^.^.^.^.^.^.^.^.^.^.^.^.^.^.^.^.^.^.^.^.O 0 0 0 0 0 0 0 0 q 0 n.^.^.^.^.^.^.^.E.^.h.S G D G G G G G G G G L G D D G G G D D D G G G S y.^.^.^.^.^.^.^.^.^.^.^.^.^.^.^.^.R.^.5.0 8 0 0 0 i D.^.^.^.^.^.^.^.^.^.",
"^.^.^.^.^.^.^.R.^.0.0 8 0 0 0 # ^.^.^.^.^.^.^.^.^.^.^.^.^.^.^.^.^.^.^.^.^.^.^.^.^.^.^.^.^.O 0 0 0 0 0 0 0 0 0 0 n.^.^.^.^.^.^.^.^.h G L D G G G G G G G G D G n e.B.| n G G G G L C k L.^.^.^.^.^.^.^.^.^.^.^.^.^.^.^.^.^.^.^.P.  0 0 0 8 0 <.^.^.^.^.^.^.^.^.^.",
"^.^.^.^.^.^.^.^.^.; 0 8 0 8 0 0.^.R.^.^.^.^.^.^.^.^.^.^.^.^.^.^.^.^.^.^.^.^.^.^.^.^.^.^.^.O 0 0 0 0 0 0 0 0 0 q n.^.^.^.^.E.^.L.m G D L G G G G G G G L D G [ L.^.^.^.I.B.e.k.e.Z.!.^.^.^.^.^.^.^.^.^.^.^.^.^.^.^.^.^.^.^.^.^.^.1 0 8 0 8 0 < ^.^.^.^.^.^.^.^.^.",
"^.^.^.^.^.^.^.^.D.i 0 0 0 0 0 z.^.^.^.^.^.^.^.^.^.^.^.^.^.^.^.^.^.^.^.^.^.^.^.^.^.^.^.^.^.O 0 0 0 0 0 0 0 0 0 0 n.^.^.^.!.^.e.n G D G G G G G G G G D L G k !.^.^.!.R.^.^.^.^.^.^.^.E.^.^.^.^.^.^.^.^.^.^.^.^.^.^.^.^.^.^.^.^.^.<.0 8 0 0 0 O ^.^.^.^.^.^.^.^.^.",
"^.^.^.^.^.^.^.^.5.0 0 0 0 0 O E.^.^.^.^.^.^.^.^.^.^.^.^.^.^.^.^.^.^.^.^.^.^.^.^.^.^.^.^.^.O 0 0 0 0 0 0 0 0 0 0 n.^.E.^.^.s.G G D G G G G G G G L D G S h.^.^.^.^.^.^.^.^.^.^.^.^.^.^.^.^.^.^.^.^.^.^.^.^.^.^.^.^.^.^.^.^.^.^.^.G.w 0 0 0 0 8 b.^.^.^.^.^.^.^.^.",
"^.^.^.^.^.^.R.^.0.0 8 0 8 0 * ^.^.^.^.^.^.^.^.^.^.^.^.^.^.^.^.^.^.^.^.^.^.^.^.^.^.^.^.^.^.O 0 0 0 0 0 0 0 0 0 0 n.^.^.L...G D L G G G G G G G G D G A Z.^.!.^.^.^.^.^.^.^.^.^.^.^.^.^.^.^.^.^.^.^.^.^.^.^.^.^.^.^.^.^.^.^.^.^.^.^.# 0 8 0 8 0 2.^.R.^.^.^.^.^.^.",
"^.^.^.^.^.^.^.^.* 0 8 0 8 q >.^.R.^.^.^.^.^.^.^.^.^.^.^.^.^.^.^.^.^.^.^.^.^.^.^.^.^.^.^.^.O 0 0 0 0 0 0 0 0 0 q n.^.B.z G D G G G G G G G G L L G f E.^.!.^.^.^.^.^.^.^.^.^.^.^.^.^.^.^.^.^.^.^.^.^.^.^.^.^.^.^.^.^.^.^.^.^.^.R.^.> 0 8 0 8 0 4 ^.R.^.^.^.^.^.^.",
"^.^.^.^.^.^.^.^.O 0 0 0 0 q n.^.^.^.^.^.^.^.^.^.^.^.^.^.^.^.^.^.^.^.^.^.^.^.^.^.^.^.^.^.^.O 0 0 0 0 0 0 0 0 0 0 z.p.G G D G G G G G G G G D G D p.^.^.^.^.^.^.^.^.^.^.^.^.^.^.^.^.^.^.^.^.^.^.^.^.^.^.^.^.^.^.^.^.^.^.^.^.^.^.R.^.>.0 8 0 0 0 ; ^.^.^.^.^.^.^.^.",
"^.^.^.^.^.^.^.D.y 0 0 0 0 w S.^.^.^.^.^.^.^.^.^.^.^.^.^.^.^.^.^.^.^.^.^.^.^.^.^.^.^.^.^.^.O 0 0 0 0 0 0 0 0 0 t p U L G G G G G G G G G D G C B.^.!.^.^.^.^.^.^.^.^.^.^.^.^.^.^.^.^.^.^.^.^.^.^.^.^.^.^.^.^.^.^.^.^.^.^.^.^.^.^.^.n.0 0 0 0 0 O R.^.^.^.^.^.^.^.",
"^.^.^.^.^.^.^.v.0 0 0 0 0 O ^.^.^.^.^.^.^.^.^.^.^.^.^.^.^.^.^.^.^.^.^.^.^.^.^.^.^.^.^.^.^.O 0 0 0 0 0 0 0 0 0 9 c U L G G G G G G G L L G ' H.^.E.^.^.^.^.^.^.^.^.^.^.^.^.^.^.^.^.^.^.^.^.^.^.^.^.^.^.^.^.^.^.^.^.^.^.^.^.^.^.^.^.S.w 0 0 0 0 w S.^.^.^.^.^.^.^.",
"^.^.^.^.^.^.^.5.0 0 0 8 0 ; ^.^.^.^.^.^.^.^.^.^.^.^.^.^.^.^.^.^.^.^.^.^.^.^.^.^.^.^.^.^.^.O 0 0 0 0 0 0 0 0 0 9 c U L G G G G G G L G L s.^.^.^.^.^.^.^.^.^.^.^.^.^.^.^.^.^.^.^.^.^.^.^.^.^.^.^.^.^.^.^.^.^.^.^.^.^.^.^.^.^.^.^.^.R.O 0 0 0 0 0 v.^.^.^.^.^.^.^.",
"^.^.^.^.^.R.^.2.0 8 0 t 0 < ^.R.^.^.^.^.^.^.^.^.^.^.^.^.^.^.^.^.^.^.^.^.^.^.^.^.^.^.^.^.^.O 0 0 0 0 0 0 0 0 0 9 c U L G G G G G D G n e.^.!.^.^.^.^.^.^.^.^.^.^.^.^.^.^.^.^.^.^.^.^.^.^.^.^.^.^.^.^.^.^.^.^.^.^.^.^.^.^.^.^.^.^.^.^.# 0 8 8 8 0 5.^.^.^.^.^.^.^.",
"^.^.^.^.^.R.^.0.0 8 q 8 0 9.^.R.^.^.^.^.^.^.^.^.^.^.^.^.^.^.^.^.^.^.^.^.^.^.^.^.^.^.^.^.^.O 0 0 0 0 0 0 0 0 0 9 c U L G G G G D G [ L.^.!.^.^.^.^.^.^.^.^.^.^.^.^.^.^.^.^.^.^.^.^.^.^.^.^.^.^.^.^.^.^.^.^.^.^.^.^.^.^.^.^.^.^.^.^.^.* 0 8 0 8 0 2.^.R.^.^.^.^.^.",
"^.^.^.^.^.^.^.>.X $ $ # X <.^.^.^.^.^.^.^.^.^.^.^.^.^.^.^.^.^.^.^.^.^.^.^.^.^.^.^.^.^.^.^.O 0 0 0 0 0 0 0 0 0 9 c U L G G G G G h ^.^.^.^.^.^.^.^.^.^.^.^.^.^.^.^.^.^.^.^.^.^.^.^.^.^.^.^.^.^.^.^.^.^.^.^.^.^.^.^.^.^.^.^.^.^.^.^.^.0.$ # # # $ <.^.^.^.^.^.^.^.",
"^.^.^.^.^.^.^.^.^.^.^.^.^.^.^.^.^.^.^.^.^.^.^.^.^.^.^.^.^.^.^.^.^.^.^.^.^.^.^.^.^.^.^.^.^.O 0 0 0 0 0 0 0 0 0 9 c U L G G G n h.^.E.^.^.^.^.^.^.^.^.^.^.^.^.^.^.^.^.^.^.^.^.^.^.^.^.^.^.^.^.^.^.^.^.^.^.^.^.^.^.^.^.^.^.^.^.^.^.^.^.^.^.^.^.^.^.^.^.^.^.^.^.^.^.",
"^.^.^.^.^.^.^.^.^.^.^.^.^.^.^.^.^.^.^.^.^.^.^.^.^.^.^.^.^.^.^.^.^.^.^.^.^.^.^.^.^.^.^.^.^.O 0 0 0 0 0 0 0 0 0 9 c U L G L G h.^.E.^.^.^.^.^.^.^.^.^.^.^.^.^.^.^.^.^.^.^.^.^.^.^.^.^.^.^.^.^.^.^.^.^.^.^.^.^.^.^.^.^.^.^.^.^.^.^.^.^.^.^.^.^.^.^.^.^.^.^.^.^.^.^.",
"^.^.^.^.^.^.^.^.^.^.^.^.^.^.^.^.^.^.^.^.^.^.^.^.^.^.^.^.^.^.^.^.^.^.^.^.^.^.^.^.^.^.^.^.^.O 0 0 0 0 0 0 0 0 0 9 c U L G G G J p.^.^.^.^.^.^.^.^.^.^.^.^.^.^.^.^.^.^.^.^.^.^.^.^.^.^.^.^.^.^.^.^.^.^.^.^.^.^.^.^.^.^.^.^.^.^.^.^.^.^.^.^.^.^.^.^.^.^.^.^.^.^.^.^.",
"^.^.^.^.^.^.^.^.^.^.^.^.^.^.^.^.^.^.^.^.^.^.^.^.^.^.^.^.^.^.^.^.^.^.^.^.^.^.^.^.^.^.^.^.^.O 0 0 0 0 0 0 0 0 0 9 c U L G G G G G f !.^.E.^.^.^.^.^.^.^.^.^.^.^.^.^.^.^.^.^.^.^.^.^.^.^.^.^.^.^.^.^.^.^.^.^.^.^.^.^.^.^.^.^.^.^.^.^.^.^.^.^.^.^.^.^.^.^.^.^.^.^.^.",
"^.^.^.^.^.^.^.^.^.^.^.^.^.^.^.^.^.^.^.^.^.^.^.^.^.^.^.^.^.^.^.^.^.^.^.^.^.^.^.^.^.^.^.^.^.O 0 0 0 0 0 0 0 0 q 9 c U L G G G G D G m L.^.!.^.^.^.^.^.^.^.^.^.^.^.^.^.^.^.^.^.^.^.^.^.^.^.^.^.^.^.^.^.^.^.^.^.^.^.^.^.^.^.^.^.^.^.^.^.^.^.^.^.^.^.^.^.^.^.^.^.^.^.",
"^.^.^.^.^.^.^.2.O # # # $ 5.^.^.^.^.^.^.^.^.^.^.^.^.^.^.^.^.^.^.^.^.^.^.^.^.^.^.^.^.^.^.^.O 0 0 0 0 0 0 0 0 0 9 c U L G G G G G D G n e.^.!.^.^.^.^.^.^.^.^.^.^.^.^.^.^.^.^.^.^.^.^.^.^.^.^.^.^.^.^.^.^.^.^.^.^.^.^.^.^.^.^.^.^.^.^.>.O # # # O >.^.R.^.^.^.^.^.",
"^.^.^.^.^.R.^.;.0 8 0 0 0 >.^.R.^.^.^.^.^.^.^.^.^.^.^.^.^.^.^.^.^.^.^.^.^.^.^.^.^.^.^.^.^.O 0 0 0 0 0 0 0 0 0 9 c U G G G G G G G D G G s.^.^.E.^.^.^.^.^.^.^.^.^.^.^.^.^.^.^.^.^.^.^.^.^.^.^.^.^.^.^.^.^.^.^.^.^.^.^.^.^.^.^.^.R.^.1 0 q 0 8 0 ;.^.R.^.^.^.^.^.",
"^.^.^.^.^.R.^.2.0 e 8 t 0 0.^.R.^.^.^.^.^.^.^.^.^.^.^.^.^.^.^.^.^.^.^.^.^.^.^.^.^.^.^.^.^.O 0 0 0 0 0 0 0 0 0 9 c U L G G G G G G G G D G | I.^.!.^.^.^.^.^.^.^.^.^.^.^.^.^.^.^.^.^.^.^.^.^.^.^.^.^.^.^.^.^.^.^.^.^.^.^.^.^.^.^.^.^.* 0 8 8 8 0 2.^.R.^.^.^.^.^.",
"^.^.^.^.^.^.^.5.0 0 0 8 0 < ^.R.^.^.^.^.^.^.^.^.^.^.^.^.^.^.^.^.^.^.^.^.^.^.^.^.^.^.^.^.^.O 0 0 0 0 0 0 0 0 0 9 c U L G G G G G G G G G D G N Z.^.!.^.^.^.^.^.^.^.^.^.^.^.^.^.^.^.^.^.^.^.^.^.^.^.^.^.^.^.^.^.^.^.^.^.^.^.^.^.^.^.^.# 0 0 0 0 0 5.^.^.^.^.^.^.^.",
"^.^.^.^.^.^.^.z.0 0 0 0 0 ; ^.R.^.^.^.^.^.^.^.^.^.^.^.^.^.^.^.^.^.^.^.^.^.^.^.^.^.^.^.^.^.O 0 0 0 0 0 0 0 0 0 9 l U D G G G G G G G U U G D G J k.^.E.^.^.^.^.^.^.^.^.^.^.^.^.^.^.^.^.^.^.^.^.^.^.^.^.^.^.^.^.^.^.^.^.^.^.^.^.^.^.P.  0 0 0 0 0 b.^.^.^.^.^.^.^.",
"^.^.^.^.^.^.^.S.w 0 0 0 0 O R.^.^.^.^.^.^.^.^.^.^.^.^.^.^.^.^.^.^.^.^.^.^.^.^.^.^.^.^.^.^.O 0 0 0 0 0 0 0 0 0 9 q.A G D G G G G G G G G G G G G G h ^.^.^.^.^.^.^.^.^.^.^.^.^.^.^.^.^.^.^.^.^.^.^.^.^.^.^.^.^.^.^.^.^.^.^.^.^.^.^.b.8 0 0 0 0   P.^.^.^.^.^.^.^.",
"^.^.^.^.^.^.^.R.O 0 0 0 0 t G.^.^.^.^.^.^.^.^.^.^.^.^.^.^.^.^.^.^.^.^.^.^.^.^.^.^.^.^.^.^.O 0 0 0 0 0 0 0 0 0 0 z.^.' G D G G G G G G G G G G G D G [ L.^.!.^.^.^.^.^.^.^.^.^.^.^.^.^.^.^.^.^.^.^.^.^.^.^.^.^.^.^.^.^.^.^.^.^.^.^.<.0 0 0 8 0 # ^.^.^.^.^.^.^.^.",
"^.^.^.^.^.^.^.^.; 0 8 0 0 0 5.^.^.^.^.^.^.^.^.^.^.^.^.^.^.^.^.^.^.^.^.^.^.^.^.^.^.^.^.^.^.O 0 0 0 0 0 0 0 0 0 0 n.^.^.h G G D G G G G G G G G G G D G z V.^.!.^.^.^.^.^.^.^.^.^.^.^.^.^.^.^.^.^.^.^.^.^.^.^.^.^.^.^.^.^.^.^.^.R.^.4 0 8 0 8 0 1 ^.R.^.^.^.^.^.^.",
"^.^.^.^.^.^.R.^.6 0 8 0 8 0 4 ^.R.^.^.^.^.^.^.^.^.^.^.^.^.^.^.^.^.^.^.^.^.^.^.^.^.^.^.^.^.O 0 0 0 0 0 0 0 0 0 0 n.^.!.^.h.J G D G G G G G G G G G G D G D p.^.^.^.^.^.^.!.!.^.^.^.E.E.^.^.^.^.^.^.^.^.^.^.^.^.^.^.^.^.^.^.^.^.^.^.# 0 0 0 8 0 >.^.R.^.^.^.^.^.^.",
"^.^.^.^.^.^.R.^.2.q 0 0 8 0 ; ^.^.^.^.^.^.^.^.^.^.^.^.^.^.^.^.^.^.^.^.^.^.^.^.^.^.^.^.^.^.O 0 0 0 0 0 0 0 0 0 0 n.^.^.E.^.Z.N G D G G G G G G G G G G G D G ..!.^.!.^.^.^.^.^.^.^.^.^.^.^.^.^.^.^.^.^.^.^.^.^.^.^.^.^.^.^.^.^.^.S.y 0 0 0 0 0 z.^.R.^.^.^.^.^.^.",
"^.^.^.^.^.^.^.^.b.8 0 0 0 0 w S.^.^.^.^.^.^.^.^.^.^.^.^.^.^.^.^.^.^.^.^.^.^.^.^.^.^.^.^.^.O 0 0 0 0 0 0 0 0 0 0 n.^.^.^.E.^.I.' G D G G G G G G G G G G G D G A M.^.^.L.h.f [ [ [ f h.F.^.^.^.^.^.^.^.^.^.^.^.^.^.^.^.^.^.^.^.^.<.0 8 0 0 0   P.^.^.^.^.^.^.^.^.",
"^.^.^.^.^.^.^.^.^.O 0 0 0 8 0 2.^.^.^.^.^.^.^.^.^.^.^.^.^.^.^.^.^.^.^.^.^.^.^.^.^.^.^.^.^.O 0 0 0 0 0 0 0 0 0 0 z.^.^.^.^.^.^.^.h G L L G G G G G G G G G G D G n h.f J G G G G U G G S f L.^.^.^.^.^.^.^.^.^.^.^.^.^.^.^.^.^.^.< 0 8 0 8 0 : ^.^.^.^.^.^.^.^.^.",
"^.^.^.^.^.^.^.R.^.< 0 8 0 8 0 : ^.^.^.^.^.^.^.^.^.^.^.^.^.^.^.^.^.^.^.^.^.^.^.^.^.^.^.^.^.O 0 0 0 0 0 0 0 0 0 0 n.^.^.^.^.^.^.E.^.k.J G D G G G G G G G G G G D G G G G G D G G G D L G G n e.^.^.^.^.^.^.^.^.^.^.^.^.^.^.^.^.D.  0 0 0 8 0 >.^.R.^.^.^.^.^.^.^.",
"^.^.^.^.^.^.^.^.^.5.0 0 0 0 0 w G.^.^.^.^.^.^.^.^.^.^.^.^.^.^.^.^.^.^.^.^.^.^.^.^.^.^.^.^.O 0 0 0 0 0 0 0 0 0 0 n.^.^.^.^.^.^.^.!.^.Z.N G D G G G G G G G G G G G D D G G G U G G G G G D G G h.^.^.^.^.^.^.^.^.^.^.^.^.^.^.^.2.0 8 0 0 0 t b.^.^.^.^.^.^.^.^.^.",
"^.^.^.^.^.^.^.^.^.D.i 0 0 0 8 0 ;.^.R.^.^.^.^.^.^.^.^.^.^.^.^.^.^.^.^.^.^.^.^.^.^.^.^.^.^.O 0 0 0 0 0 0 0 0 0 0 n.^.^.^.^.^.^.^.^.!.^.H.| G D G G G G G G G G G G G G G G G G L G G G G G D L J B.^.^.^.^.^.^.^.^.^.^.^.^.^.^.; 0 0 0 0 0 ; ^.^.^.^.^.^.^.^.^.^.",
"^.^.^.^.^.^.^.^.^.^.1 q 8 0 0 0 $ ^.^.^.^.^.^.^.^.^.^.^.^.^.^.^.^.^.^.^.^.^.^.^.^.^.^.^.^.O 0 0 0 0 0 0 0 0 0 0 n.^.^.^.^.^.^.^.^.^.E.^.^.s.G G D G G G G G G G G G G G L G W ! Y G G G G G D G m ^.^.^.^.^.^.^.^.^.^.^.^.^.z.0 0 0 0 0 0 >.^.R.^.^.^.^.^.^.^.^.",
"^.^.^.^.^.^.^.^.^.^.5.0 0 0 0 0 0 5.^.^.^.^.^.^.^.^.^.^.^.^.^.^.^.^.^.^.^.^.^.^.^.^.^.^.^.O 0 0 0 0 0 0 0 0 0 0 n.^.^.^.^.^.^.^.^.^.^.^.!.^.k.S G D G G G G G G G G G G Q #.=.-.=.$.Q L G G G D G k.^.E.^.^.^.^.^.^.^.^.^.^.< 0 0 0 0 0 i D.^.^.^.^.^.^.^.^.^.^.",
"^.^.^.^.^.^.^.^.^.^.^.O 0 q 0 8 0 ; ^.^.^.^.^.^.^.^.^.^.^.^.^.^.^.^.^.^.^.^.^.^.^.^.^.^.^.O 0 0 0 0 0 0 0 0 0 0 n.^.^.^.^.^.^.^.^.^.^.^.^.!.^.Z.M G D G G G G G G G L / -.-.-.=.-.-.=.~ L G G D G | ^.^.^.^.^.^.^.^.^.^.^.b.w q q 0 8 0 1 ^.^.^.^.^.^.^.^.^.^.^.",
"^.^.^.^.^.^.^.^.^.R.^.0.q 8 0 0 0 0 5.^.^.^.^.^.^.^.^.^.^.^.^.^.^.^.^.^.^.^.^.^.^.^.^.^.^.O 0 0 0 0 0 0 0 0 0 0 n.^.^.^.^.^.^.^.^.^.^.^.^.^.!.^.P.| G D G G G G G G W *.-.=.=.=.=.=.-.&.I G G G G C !.^.^.^.^.^.^.^.^.R.^.4 0 8 0 0 0 0 n.^.^.^.^.^.^.^.^.^.^.^.",
"^.^.^.^.^.^.^.^.^.^.^.D.i q 0 0 8 0 ; ^.^.^.^.^.^.^.^.^.^.^.^.^.^.^.^.^.^.^.^.^.^.^.^.^.^.O 0 0 0 0 0 0 0 0 0 0 n.^.R.^.^.^.^.^.^.^.^.^.^.^.^.^.^.^.s.G G G G G G L _ -.=.-.-.-.=.-.=.-./ L G G G J L.^.^.^.^.^.^.^.^.^.b.t 0 0 0 8 0 ; ^.^.^.^.^.^.^.^.^.^.^.^.",
"^.^.^.^.^.^.^.^.^.^.^.^.4 0 8 0 0 0 0 2.^.^.^.^.^.^.^.^.^.^.^.^.^.^.^.^.^.^.^.^.^.^.R.^.G.i 0 0 0 0 0 0 0 0 0 0 >.^.^.^.^.^.^.^.^.^.^.^.^.^.^.^.^.!.^.e.n G G G G G +.-.=.=.=.-.=.=.=.-.X.L G G G G Z.^.^.^.^.^.^.^.^.^.* 0 0 0 0 0 0 5.^.^.^.^.^.^.^.^.^.^.^.^.",
"^.^.^.^.^.^.^.^.^.^.^.^.G.y 0 0 0 0 0 O P.^.^.^.^.^.^.^.^.^.^.^.^.^.^.^.^.^.^.^.^.^.^.>.w 0 0 0 0 0 0 0 0 0 0 0 0 * P.^.^.^.^.^.^.^.^.^.^.^.^.^.^.^.E.^.s.G D G G L +.-.=.=.-.-.=.=.=.-._ L G G G D Z.^.^.^.^.^.^.^.^.5.0 0 0 0 8 0 ; ^.^.^.^.^.^.^.^.^.^.^.^.^.",
"^.^.^.^.^.^.^.^.^.^.^.^.^.4 0 8 0 0 8 0 4 ^.R.^.^.^.^.^.^.^.^.^.^.^.^.^.^.^.^.^.^.^.4 0 0 0 0 0 0 0 0 0 0 0 0 0 8 0 # D.^.^.^.^.^.^.^.^.^.^.^.^.^.^.E.^.p.G D G G L ` -.=.=.=.=.-.-.=.-.Q G G G G n L.^.^.^.^.^.^.^.P.O 0 0 0 0 0 0 5.^.R.^.^.^.^.^.^.^.^.^.^.^.",
"^.^.^.^.^.^.^.^.^.^.^.^.^.D.X 0 0 0 0 0 0 n.^.^.^.^.^.^.^.^.^.^.^.^.^.^.^.^.^.^.^.0.0 8 0 0 0 0 0 0 0 0 0 0 0 0 0 8 0 ; ^.^.^.^.^.^.^.^.^.^.^.^.^.^.^.^.e.G L G G G W *.-.=.=.=.=.=.-.@.G G G G G A ^.^.^.^.^.^.R.^.4 0 8 0 0 0 0 * ^.^.^.^.^.^.^.^.^.^.^.^.^.^.",
"^.^.^.^.^.^.^.^.^.^.^.^.^.^.>.0 8 0 0 0 0 O P.^.^.^.^.^.^.^.^.^.^.^.^.^.^.^.^.^.v.8 0 0 0 0 0 0 0 0 0 0 0 0 0 0 0 0 8 0 >.^.^.^.^.^.^.^.^.^.^.^.^.^.^.^.H.n G G G G G ^ =.-.-.-.-.-.%.P L G G D G s.^.E.^.^.^.^.^.5.0 0 0 0 q q w b.^.^.^.^.^.^.^.^.^.^.^.^.^.^.",
"^.^.^.^.^.^.^.^.^.^.^.^.^.^.^.; 0 8 0 0 8 0 1 ^.R.^.^.^.^.^.^.^.^.^.^.^.^.^.^.^.* 0 8 0 0 0 0 0 0 0 0 0 0 0 0 0 0 0 0 0 O E.^.^.^.^.^.^.^.^.^.^.^.^.^.^.^.f G D G G G L E O.%.&.$._ H L G G G U R L.^.^.^.^.^.^.D.X 0 0 0 0 8 q 0.^.R.^.^.^.^.^.^.^.^.^.^.^.^.^.",
"^.^.^.^.^.^.^.^.^.^.^.^.^.^.^.z.t 0 0 0 0 q 0 >.^.R.^.^.^.^.^.^.^.^.^.^.^.^.^.S.y 0 0 0 0 0 0 0 0 0 0 0 0 0 0 0 0 0 0 0 0 5.^.R.^.^.^.^.^.^.^.^.^.^.^.^.^.Z.J G G G G G G L H T G G G G G G D G s.^.^.^.^.^.^.^.: 0 8 0 0 8 0 $ R.^.^.^.^.^.^.^.^.^.^.^.^.^.^.^.",
"^.^.^.^.^.^.^.^.^.^.^.^.^.^.R.^.0.0 8 0 0 0 0 8 n.^.R.^.^.^.^.^.^.^.^.^.^.^.^.5.0 8 0 0 0 0 0 0 0 0 0 0 0 0 0 0 0 0 0 8 0 4 ^.R.^.^.^.^.^.^.^.^.^.^.^.^.E.^.y.G D G G G G G U G G G G G G D G [ ^.^.^.^.^.R.^.4 0 8 0 0 0 0 8 z.^.^.^.^.^.^.^.^.^.^.^.^.^.^.^.^.",
"^.^.^.^.^.^.^.^.^.^.^.^.^.^.^.^.^.; 0 8 0 0 0 0   b.^.^.^.^.^.^.^.^.^.^.^.R.^.;.0 8 0 0 0 0 0 0 0 0 0 0 0 0 0 0 0 0 0 8 0 * ^.R.^.^.^.^.^.^.^.^.^.^.^.^.^.^.^.a G D D G G G G G G G G D D G m H.^.^.^.^.R.^.>.0 0 0 0 0 8 0 0.^.R.^.^.^.^.^.^.^.^.^.^.^.^.^.^.^.",
"^.^.^.^.^.^.^.^.^.^.^.^.^.^.^.^.^.b.y q 0 0 0 8 0 O D.^.^.^.^.^.^.^.^.^.^.R.^.4 0 8 0 0 0 0 0 0 0 0 0 0 0 0 0 0 0 0 0 8 0 ; ^.R.^.^.^.^.^.^.^.^.^.^.^.^.^.^.^.^.p.J G G G D D D D D G G G a !.^.^.^.^.R.^.<.0 0 0 0 0 8 0 * ^.^.^.^.^.^.^.^.^.^.^.^.^.^.^.^.^.^.",
"^.^.^.^.^.^.^.^.^.^.^.^.^.^.^.^.^.^.<.0 8 0 0 0 8 0 # D.^.^.^.^.^.^.^.^.^.R.^.0.0 8 0 0 0 0 0 0 0 0 0 0 0 0 0 0 0 0 0 8 0 * ^.R.^.^.^.^.^.^.^.^.^.^.^.^.^.^.^.^.^.M.f n G G G G U G S | B.^.^.^.^.^.R.^.5.8 0 0 0 0 8 0 O D.^.^.^.^.^.^.^.^.^.^.^.^.^.^.^.^.^.^.",
"^.^.^.^.^.^.^.^.^.^.^.^.^.^.^.^.^.R.^.4 0 8 0 0 0 8 0 # D.^.^.^.^.^.^.^.^.^.^.<.0 8 0 0 0 0 0 0 0 0 0 0 0 0 0 0 0 0 0 8 0 9.^.R.^.^.^.^.^.^.^.^.^.^.^.^.^.^.^.^.^.^.^.I.e.p.h h y.e.L.^.^.^.^.^.^.R.^.<.8 0 8 0 0 0 0 y v.^.^.^.^.^.^.^.^.^.^.^.^.^.^.^.^.^.^.^.",
"^.^.^.^.^.^.^.^.^.^.^.^.^.^.^.^.^.^.^.^.* 0 8 0 0 0 8 0 O G.^.R.^.^.^.^.^.^.^.b.t 0 0 0 0 0 0 0 0 0 0 0 0 0 0 0 0 0 0 0 0 5.^.^.^.^.^.^.^.^.^.^.^.^.^.^.^.^.^.^.^.^.^.^.^.^.^.^.^.^.^.E.^.^.^.^.R.^.>.0 0 0 0 0 0 0 0 5.^.R.^.^.^.^.^.^.^.^.^.^.^.^.^.^.^.^.^.^.",
"^.^.^.^.^.^.^.^.^.^.^.^.^.^.^.^.^.^.^.^.E.# 0 8 0 0 0 8 0   z.^.R.^.^.^.^.^.^.^.; 0 8 0 0 0 0 0 0 0 0 0 0 0 0 0 0 0 0 0 O P.^.^.^.^.^.^.^.^.^.^.^.^.^.^.^.^.^.^.^.^.^.^.^.!.!.!.!.E.^.^.^.^.^.^.^.4 0 0 0 0 0 0 8 0 >.^.R.^.^.^.^.^.^.^.^.^.^.^.^.^.^.^.^.^.^.^.",
"^.^.^.^.^.^.^.^.^.^.^.^.^.^.^.^.^.^.^.^.^.D.O 0 8 0 0 0 8 0 e <.^.R.^.^.^.^.^.^.<.0 8 0 0 0 0 0 0 0 0 0 0 0 0 0 0 0 8 0 >.^.R.^.^.^.^.^.^.^.^.^.^.^.^.^.^.^.^.^.^.^.^.^.^.^.^.^.^.^.^.^.^.R.^.P.* 0 8 0 0 0 0 8 0 ;.^.R.^.^.^.^.^.^.^.^.^.^.^.^.^.^.^.^.^.^.^.^.",
"^.^.^.^.^.^.^.^.^.^.^.^.^.^.^.^.^.^.^.^.^.^.G.O 0 8 0 0 0 q q 0 4 ^.^.R.^.^.^.^.^.; 0 8 0 0 0 0 0 0 0 0 0 0 0 0 0 8 0 # ^.^.^.^.^.^.^.^.^.^.^.^.^.^.^.^.^.^.^.^.^.^.^.^.^.^.^.^.^.^.^.^.^.^.z.O 0 8 0 0 0 0 8 0 0.^.R.^.^.^.^.^.^.^.^.^.^.^.^.^.^.^.^.^.^.^.^.^.",
"^.^.^.^.^.^.^.^.^.^.^.^.^.^.^.^.^.^.^.^.^.^.^.G.O 0 8 0 0 0 q 8 0 # b.^.^.^.^.^.^.D.O 0 8 0 0 0 0 0 0 0 0 0 0 0 8 0   b.^.^.^.^.^.^.^.^.^.^.^.^.^.^.^.^.^.^.^.^.^.^.^.^.^.^.^.^.^.^.^.^.^.;.8 0 8 0 0 0 0 8 0 ;.^.R.^.^.^.^.^.^.^.^.^.^.^.^.^.^.^.^.^.^.^.^.^.^.",
"^.^.^.^.^.^.^.^.^.^.^.^.^.^.^.^.^.^.^.^.^.^.^.^.S.# 0 8 0 0 0 0 8 0 w ;.R.^.^.^.^.^.G.O 0 0 8 0 0 0 0 0 0 0 8 0 0 O b.^.^.^.^.^.^.^.^.^.^.^.^.^.^.^.^.^.^.^.^.^.^.^.^.^.^.^.^.^.R.^.^.v.# 0 0 0 0 0 0 8 0 0 >.^.R.^.^.^.^.^.^.^.^.^.^.^.^.^.^.^.^.^.^.^.^.^.^.^.",
"^.^.^.^.^.^.^.^.^.^.^.^.^.^.^.^.^.^.^.^.^.^.^.^.^.P.; 0 8 0 0 0 0 8 0 0 $ n.^.^.^.R.^.P.< 0 0 0 0 8 8 0 0 0 0 q 1 D.^.^.^.^.^.^.^.^.^.^.^.^.^.^.^.^.^.^.^.^.^.^.^.^.^.^.^.^.R.^.^.D.4 8 0 0 0 0 0 0 8 0 y 5.^.R.^.^.^.^.^.^.^.^.^.^.^.^.^.^.^.^.^.^.^.^.^.^.^.^.",
"^.^.^.^.^.^.^.^.^.^.^.^.^.^.^.^.^.^.^.^.^.^.^.^.^.^.^.4 0 8 8 0 0 0 0 8 0 0 * v.^.^.R.R.^.v.< O q 0 0 0 8 X < v.^.^.^.^.^.^.^.^.^.^.^.^.^.^.^.^.^.^.^.^.^.^.^.^.^.^.^.^.R.^.^.P.;.  0 0 0 0 0 0 0 8 0 O b.^.R.^.^.^.^.^.^.^.^.^.^.^.^.^.^.^.^.^.^.^.^.^.^.^.^.^.",
"^.^.^.^.^.^.^.^.^.^.^.^.^.^.^.^.^.^.^.^.^.^.^.^.^.^.^.^.>.t 0 8 0 0 0 0 8 0 0 8 * z.^.^.^.^.^.P.b.5.<.5.b.E.^.^.^.^.^.^.^.^.^.^.^.^.^.^.^.^.^.^.^.^.^.^.^.^.^.^.^.R.^.^.^.D.0.  0 0 8 0 0 0 0 0 0 0 % P.^.^.^.^.^.^.^.^.^.^.^.^.^.^.^.^.^.^.^.^.^.^.^.^.^.^.^.^.",
"^.^.^.^.^.^.^.^.^.^.^.^.^.^.^.^.^.^.^.^.^.^.^.^.^.^.^.R.^.v.O q 8 8 0 0 0 0 8 0 0 0 ; <.P.^.^.^.^.^.^.^.^.^.R.^.^.^.^.^.^.^.^.^.^.^.^.^.^.^.^.^.^.^.^.^.^.^.R.^.^.^.^.z.< y 0 0 8 0 0 0 0 0 8 0 t >.^.^.^.^.^.^.^.^.^.^.^.^.^.^.^.^.^.^.^.^.^.^.^.^.^.^.^.^.^.^.",
"^.^.^.^.^.^.^.^.^.^.^.^.^.^.^.^.^.^.^.^.^.^.^.^.^.^.^.^.R.^.P.4 0 q 8 0 0 0 0 0 8 0 0 0   < n.P.^.^.^.^.R.R.R.^.^.^.^.^.^.^.^.^.^.^.^.^.^.^.^.^.^.R.R.^.^.^.^.^.b.0.$ 0 0 0 8 0 0 0 0 0 8 0 0 ; b.^.R.^.^.^.^.^.^.^.^.^.^.^.^.^.^.^.^.^.^.^.^.^.^.^.^.^.^.^.^.^.",
"^.^.^.^.^.^.^.^.^.^.^.^.^.^.^.^.^.^.^.^.^.^.^.^.^.^.^.^.^.^.^.^.z.# q 0 8 0 0 0 0 0 8 8 0 0 0 X < 2.b.R.^.^.^.^.^.^.^.^.^.^.R.R.^.^.^.^.^.^.^.^.^.^.^.^.S.5.4 $ 8 0 0 0 8 0 0 0 0 0 8 0 0   2.^.^.^.^.^.^.^.^.^.^.^.^.^.^.^.^.^.^.^.^.^.^.^.^.^.^.^.^.^.^.^.^.^.",
"^.^.^.^.^.^.^.^.^.^.^.^.^.^.^.^.^.^.^.^.^.^.^.^.^.^.^.^.^.^.^.^.^.^.>.  0 0 8 0 0 0 0 0 0 8 0 0 0 0 8 O * 9.2.z.G.P.^.^.^.^.^.^.^.^.^.^.^.P.S.v.5.0.* $ w 0 0 0 0 8 8 0 0 0 0 0 8 0 0 w 4 D.^.^.^.^.^.^.^.^.^.^.^.^.^.^.^.^.^.^.^.^.^.^.^.^.^.^.^.^.^.^.^.^.^.^.",
"^.^.^.^.^.^.^.^.^.^.^.^.^.^.^.^.^.^.^.^.^.^.^.^.^.^.^.^.^.^.^.^.R.^.^.D.0.i q q 8 8 0 0 0 0 0 0 8 8 0 0 0 0 0 0 t   O # ; * * * * * ; ; $   w 0 0 0 0 0 0 0 8 0 0 0 0 0 0 8 8 0 0 w < G.^.^.^.^.^.^.^.^.^.^.^.^.^.^.^.^.^.^.^.^.^.^.^.^.^.^.^.^.^.^.^.^.^.^.^.^.",
"^.^.^.^.^.^.^.^.^.^.^.^.^.^.^.^.^.^.^.^.^.^.^.^.^.^.^.^.^.^.^.^.^.^.^.^.^.D.0.  0 0 0 8 0 0 0 0 0 0 0 0 8 8 8 0 0 0 0 0 0 0 q 0 0 0 0 0 0 0 0 0 0 8 8 0 0 0 0 0 0 0 8 8 0 0 0   4 S.^.^.^.^.^.^.^.^.^.^.^.^.^.^.^.^.^.^.^.^.^.^.^.^.^.^.^.^.^.^.^.^.^.^.^.^.^.^.",
"^.^.^.^.^.^.^.^.^.^.^.^.^.^.^.^.^.^.^.^.^.^.^.^.^.^.^.^.^.^.^.^.^.^.^.^.R.^.^.P.2.; 8 0 0 0 8 8 0 0 0 0 0 0 0 0 0 0 0 8 8 8 8 8 8 8 8 0 0 0 0 0 0 0 0 0 0 0 0 8 8 q 0 0 t ; 2.P.^.^.^.^.^.^.^.^.^.^.^.^.^.^.^.^.^.^.^.^.^.^.^.^.^.^.^.^.^.^.^.^.^.^.^.^.^.^.^.^.",
"^.^.^.^.^.^.^.^.^.^.^.^.^.^.^.^.^.^.^.^.^.^.^.^.^.^.^.^.^.^.^.^.^.^.^.^.^.^.R.^.^.^.b.0.$ 0 0 0 0 0 8 8 8 0 0 0 0 0 0 0 0 0 0 0 0 0 0 0 0 0 0 0 q 0 8 8 8 0 0 0 0 w ; ;.b.^.^.^.R.^.^.^.^.^.^.^.^.^.^.^.^.^.^.^.^.^.^.^.^.^.^.^.^.^.^.^.^.^.^.^.^.^.^.^.^.^.^.^.",
"^.^.^.^.^.^.^.^.^.^.^.^.^.^.^.^.^.^.^.^.^.^.^.^.^.^.^.^.^.^.^.^.^.^.^.^.^.^.^.^.R.^.^.^.^.b.>.:   0 0 0 0 0 0 0 0 8 8 8 8 8 8 8 8 8 8 8 8 8 0 0 q q 0 0 0 8 O 1 2.S.^.^.^.^.R.^.^.^.^.^.^.^.^.^.^.^.^.^.^.^.^.^.^.^.^.^.^.^.^.^.^.^.^.^.^.^.^.^.^.^.^.^.^.^.^.^.",
"^.^.^.^.^.^.^.^.^.^.^.^.^.^.^.^.^.^.^.^.^.^.^.^.^.^.^.^.^.^.^.^.^.^.^.^.^.^.^.^.^.^.^.R.^.^.^.^.P.z.>.4 ; O y 0 0 0 0 0 0 0 0 0 0 0 0 0 0 q 0 8   $ * 9.5.b.^.^.^.^.^.R.^.^.^.^.^.^.^.^.^.^.^.^.^.^.^.^.^.^.^.^.^.^.^.^.^.^.^.^.^.^.^.^.^.^.^.^.^.^.^.^.^.^.^.^.",
"^.^.^.^.^.^.^.^.^.^.^.^.^.^.^.^.^.^.^.^.^.^.^.^.^.^.^.^.^.^.^.^.^.^.^.^.^.^.^.^.^.^.^.^.^.^.R.^.^.^.^.^.^.R.D.v.5.2.>.4 4 < < < < 4 4 0.>.<.n.b.P.^.^.^.^.^.^.R.R.^.^.^.^.^.^.^.^.^.^.^.^.^.^.^.^.^.^.^.^.^.^.^.^.^.^.^.^.^.^.^.^.^.^.^.^.^.^.^.^.^.^.^.^.^.^.^.",
"^.^.^.^.^.^.^.^.^.^.^.^.^.^.^.^.^.^.^.^.^.^.^.^.^.^.^.^.^.^.^.^.^.^.^.^.^.^.^.^.^.^.^.^.^.^.^.^.^.^.R.R.^.^.^.^.^.^.^.^.^.^.^.^.^.^.^.^.^.^.^.^.^.^.^.R.^.^.^.^.^.^.^.^.^.^.^.^.^.^.^.^.^.^.^.^.^.^.^.^.^.^.^.^.^.^.^.^.^.^.^.^.^.^.^.^.^.^.^.^.^.^.^.^.^.^.^.^.",
"^.^.^.^.^.^.^.^.^.^.^.^.^.^.^.^.^.^.^.^.^.^.^.^.^.^.^.^.^.^.^.^.^.^.^.^.^.^.^.^.^.^.^.^.^.^.^.^.^.^.^.^.^.^.^.^.R.R.R.R.R.R.R.R.R.R.R.R.R.^.^.^.^.^.^.^.^.^.^.^.^.^.^.^.^.^.^.^.^.^.^.^.^.^.^.^.^.^.^.^.^.^.^.^.^.^.^.^.^.^.^.^.^.^.^.^.^.^.^.^.^.^.^.^.^.^.^.^.",
"^.^.^.^.^.^.^.^.^.^.^.^.^.^.^.^.^.^.^.^.^.^.^.^.^.^.^.^.^.^.^.^.^.^.^.^.^.^.^.^.^.^.^.^.^.^.^.^.^.^.^.^.^.^.^.^.^.^.^.^.^.^.^.^.^.^.^.^.^.^.^.^.^.^.^.^.^.^.^.^.^.^.^.^.^.^.^.^.^.^.^.^.^.^.^.^.^.^.^.^.^.^.^.^.^.^.^.^.^.^.^.^.^.^.^.^.^.^.^.^.^.^.^.^.^.^.^.^.",
"^.^.^.^.^.^.^.^.^.^.^.^.^.^.^.^.^.^.^.^.^.^.^.^.^.^.^.^.^.^.^.^.^.^.^.^.^.^.^.^.^.^.^.^.^.^.^.^.^.^.^.^.^.^.^.^.^.^.^.^.^.^.^.^.^.^.^.^.^.^.^.^.^.^.^.^.^.^.^.^.^.^.^.^.^.^.^.^.^.^.^.^.^.^.^.^.^.^.^.^.^.^.^.^.^.^.^.^.^.^.^.^.^.^.^.^.^.^.^.^.^.^.^.^.^.^.^.^.",
"^.^.^.^.^.^.^.^.^.^.^.^.^.^.^.^.^.^.^.^.^.^.^.^.^.^.^.^.^.^.^.^.^.^.^.^.^.^.^.^.^.^.^.^.^.^.^.^.^.^.^.^.^.^.^.^.^.^.^.^.^.^.^.^.^.^.^.^.^.^.^.^.^.^.^.^.^.^.^.^.^.^.^.^.^.^.^.^.^.^.^.^.^.^.^.^.^.^.^.^.^.^.^.^.^.^.^.^.^.^.^.^.^.^.^.^.^.^.^.^.^.^.^.^.^.^.^.^.",
"^.^.^.^.^.^.^.^.^.^.^.^.^.^.^.^.^.^.^.^.^.^.^.^.^.^.^.^.^.^.^.^.^.^.^.^.^.^.^.^.^.^.^.^.^.^.^.^.^.^.^.^.^.^.^.^.^.^.^.^.^.^.^.^.^.^.^.^.^.^.^.^.^.^.^.^.^.^.^.^.^.^.^.^.^.^.^.^.^.^.^.^.^.^.^.^.^.^.^.^.^.^.^.^.^.^.^.^.^.^.^.^.^.^.^.^.^.^.^.^.^.^.^.^.^.^.^.^.",
"^.^.^.^.^.^.^.^.^.^.^.^.^.^.^.^.^.^.^.^.^.^.^.^.^.^.^.^.^.^.^.^.^.^.^.^.^.^.^.^.^.^.^.^.^.^.^.^.^.^.^.^.^.^.^.^.^.^.^.^.^.^.^.^.^.^.^.^.^.^.^.^.^.^.^.^.^.^.^.^.^.^.^.^.^.^.^.^.^.^.^.^.^.^.^.^.^.^.^.^.^.^.^.^.^.^.^.^.^.^.^.^.^.^.^.^.^.^.^.^.^.^.^.^.^.^.^.^.",
"^.^.^.^.^.^.^.^.^.^.^.^.^.^.^.^.^.^.^.^.^.^.^.^.^.^.^.^.^.^.^.^.^.^.^.^.^.^.^.^.^.^.^.^.^.^.^.^.^.^.^.^.^.^.^.^.^.^.^.^.^.^.^.^.^.^.^.^.^.^.^.^.^.^.^.^.^.^.^.^.^.^.^.^.^.^.^.^.^.^.^.^.^.^.^.^.^.^.^.^.^.^.^.^.^.^.^.^.^.^.^.^.^.^.^.^.^.^.^.^.^.^.^.^.^.^.^.^.",
"^.^.^.^.^.^.^.^.^.^.^.^.^.^.^.^.^.^.^.^.^.^.^.^.^.^.^.^.^.^.^.^.^.^.^.^.^.^.^.^.^.^.^.^.^.^.^.^.^.^.^.^.^.^.^.^.^.^.^.^.^.^.^.^.^.^.^.^.^.^.^.^.^.^.^.^.^.^.^.^.^.^.^.^.^.^.^.^.^.^.^.^.^.^.^.^.^.^.^.^.^.^.^.^.^.^.^.^.^.^.^.^.^.^.^.^.^.^.^.^.^.^.^.^.^.^.^.^.",
"^.^.^.^.^.^.^.^.^.^.^.^.^.^.^.^.^.^.^.^.^.^.^.^.^.^.^.^.^.^.^.^.^.^.^.^.^.^.^.^.^.^.^.^.^.^.^.^.^.^.^.^.^.^.^.^.^.^.^.^.^.^.^.^.^.^.^.^.^.^.^.^.^.^.^.^.^.^.^.^.^.^.^.^.^.^.^.^.^.^.^.^.^.^.^.^.^.^.^.^.^.^.^.^.^.^.^.^.^.^.^.^.^.^.^.^.^.^.^.^.^.^.^.^.^.^.^.^."
};
