/* XPM */
static const char *bitcoin64[] = {
/* columns rows colors chars-per-pixel */
"64 64 161 2 ",
"   c #07198B",
".  c #071A8B",
"X  c #07198C",
"o  c #07198C",
"O  c #07198D",
"+  c #071A8C",
"@  c #07198C",
"#  c #07198C",
"$  c #07198D",
"%  c #071A8C",
"&  c #07198D",
"*  c #07198C",
"=  c #071A8E",
"-  c #07198C",
";  c #07198D",
":  c #07198B",
">  c #071A8D",
",  c #07198D",
"<  c #071A8D",
"1  c #07198D",
"2  c #07198D",
"3  c #07198C",
"4  c #07198D",
"5  c #07198A",
"6  c #07198C",
"7  c #081A8D",
"8  c #07168A",
"9  c #07198C",
"0  c #071A8D",
"q  c #081A8D",
"w  c #07198C",
"e  c #071A8D",
"r  c #07198E",
"t  c #071A8D",
"y  c #02A5E3",
"u  c #01CEFC",
"i  c #01CEFC",
"p  c #01CDFD",
"a  c #01CEFC",
"s  c #01CEFC",
"d  c #01D0FD",
"f  c #03ADE9",
"g  c #01CEFC",
"h  c #01CEFC",
"j  c #01B3ED",
"k  c #02CFFC",
"l  c #01CDFC",
"z  c #02CFFD",
"x  c #01CDFC",
"c  c #01CFFC",
"v  c #03CFFD",
"b  c #01CEFC",
"n  c #02CEFC",
"m  c #03CFFC",
"M  c #01CEFC",
"N  c #01CDFC",
"B  c #00CBFC",
"V  c #01CDFC",
"C  c #01CDFC",
"Z  c #0FD1FC",
"A  c #02CEFC",
"S  c #12D0FC",
"D  c #00D3FF",
"F  c #17D2FC",
"G  c #1AD3FC",
"H  c #23D4FC",
"J  c #3AD9FC",
"K  c #35D7FC",
"L  c #41D9FC",
"P  c #59DDFC",
"I  c #78E3FC",
"U  c #01CEFC",
"Y  c #01CCFC",
"T  c #02CEFC",
"R  c #01CDFC",
"E  c #02CEFC",
"W  c #01CDFC",
"Q  c #01CFFD",
"!  c #97E9FB",
"~  c #9EEBFC",
"^  c #ACEDFB",
"/  c #BCF0FB",
"(  c #BEF1FB",
")  c #CFF4FB",
"_  c #DFF8FC",
"`  c #D5F4FB",
"'  c #E8F8FB",
"]  c #EAF8FB",
"[  c #E6F9FB",
"{  c #EBFAFB",
"}  c #F6FAFB",
"|  c #FEFDFB",
" . c #06198C",
".. c #07198C",
"X. c #071A8D",
"o. c #07198D",
"O. c #07198D",
"+. c #07198D",
"@. c #06198D",
"#. c #07198D",
"$. c #061A8D",
"%. c #07198D",
"&. c #071A8D",
"*. c #071A8D",
"=. c #02CFFC",
"-. c #01CFFC",
";. c #02D9FE",
":. c #01CFFC",
">. c #01CFFD",
",. c #01CCFC",
"<. c #02CFFD",
"1. c #01CEFC",
"2. c #02CFFC",
"3. c #01CDFC",
"4. c #01CFFC",
"5. c #02CDFC",
"6. c #01CEFC",
"7. c #071A8F",
"8. c #06198D",
"9. c #07198D",
"0. c #071A8D",
"q. c #061A8F",
"w. c #072B9B",
"e. c #07198D",
"r. c #02CEFB",
"t. c #02CFFC",
"y. c #01CDFC",
"u. c #01CDFC",
"i. c #01CFFC",
"p. c #07158B",
"a. c #06198D",
"s. c #07198D",
"d. c #061A8E",
"f. c #071A8E",
"g. c #071A8F",
"h. c #02D0FC",
"j. c #01CEFC",
"k. c #02D1FD",
"l. c #03D0FD",
"z. c #071B8F",
"x. c #061A91",
"c. c #063A9F",
"v. c #06198E",
"b. c #071B8F",
"n. c #07198E",
"m. c #02D1FC",
"M. c #07178B",
"N. c #071A8D",
"B. c #062D99",
"V. c #062A98",
"C. c #02CEFC",
"Z. c #041585",
"A. c #061A8D",
"S. c #071A8D",
"D. c #048ACD",
"F. c #01CCFC",
"G. c #01CDFC",
"H. c #07198C",
"J. c None",
"K. c #0191CD",
"L. c #0543A6",
/* pixels */
"J.J.J.J.J.J.J.J.J.J.J.J.J.J.J.J.J.J.J.J.J.J.J.J.J.J.J.J.J.J.J.J.J.J.J.J.J.J.J.J.J.J.J.J.J.J.J.J.J.J.J.J.J.J.J.J.J.J.J.J.J.J.J.J.",
"J.J.J.J.J.J.J.J.J.J.J.J.J.J.J.J.J.J.J.J.J.J.J.J.J.J.J.J.J.J.J.J.J.J.J.J.J.J.J.J.J.J.J.J.J.J.J.J.J.J.J.J.J.J.J.J.J.J.J.J.J.J.J.J.",
"J.J.J.J.J.J.J.J.J.J.J.J.J.J.J.J.J.J.J.J.J.J.J.J.J.J.J.J.J.N.N.N.N.N.N.N.J.J.J.J.J.J.J.J.J.J.J.J.J.J.J.J.J.J.J.J.J.J.J.J.J.J.J.J.",
"J.J.J.J.J.J.J.J.J.J.J.J.J.J.J.J.J.J.J.J.J.J.J.J.N.J.J.J.J.J.J.J.J.J.J.J.J.J.J.N.J.J.J.J.J.J.J.J.J.J.J.J.J.J.J.J.J.J.J.J.J.J.J.J.",
"J.J.J.J.J.J.J.J.J.J.J.J.J.J.J.J.J.J.J.J.J.N.J.J.J.J.x.q.%.X.*.*.*.*.X.%.q.n.J.J.J.J.N.J.J.J.J.J.J.J.J.J.J.J.J.J.J.J.J.J.J.J.J.J.",
"J.J.J.J.J.J.J.J.J.J.J.J.J.J.J.J.J.J.J.J.J.J.N.8.*.- X 5 7 7 7 7 7 7 7 7 5 t - 3 e.M.J.J.J.J.J.J.J.J.J.J.J.J.J.J.J.J.J.J.J.J.J.J.",
"J.J.J.J.J.J.J.J.J.J.J.J.J.J.J.J.J.J.J.J.f.*.+ 7 7 7 7 7 7 7 7 7 7 7 7 7 7 7 7 7 7 + 3 q.J.J.N.J.J.J.J.J.J.J.J.J.J.J.J.J.J.J.J.J.",
"J.J.J.J.J.J.J.J.J.J.J.J.J.J.J.J.J.J.q.< 8 7 6 7 7 7 o - 3  .@.O.@.@.X.3 & + 8 7 7 7 7 5 & q.J.J.J.J.J.J.J.J.J.J.J.J.J.J.J.J.J.J.",
"J.J.J.J.J.J.J.J.J.J.J.J.J.J.N.J.x.3 9 7 7 7 5 - @.a.J.J.J.J.J.J.J.J.J.J.J.J.q.@.; 8 7 7 7 5 , s.J.N.J.J.J.J.J.J.J.J.J.J.J.J.J.J.",
"J.J.J.J.J.J.J.J.J.J.J.J.J.N.J.%.+ 7 6 6 X 3 s.x.e.@.%.s.J.M.N.J.N.N.N.N.J.J.J.J.J.a.*.X 7 6 7 X %.J.J.J.J.J.J.J.J.J.J.J.J.J.J.J.",
"J.J.J.J.J.J.J.J.J.J.J.J.J.J.3 7 7 6 8 3 s.J.*.9 7 7 7 w *.J.J.J.J.J.J.J.J.J.J.N.N.J.J.v.*.8 7 6 7 3 J.J.J.J.J.J.J.J.J.J.J.J.J.J.",
"J.J.J.J.J.J.J.J.J.J.J.J.x.; 7 5 7 - q.J.J.; 7 6 6 5 6 7 7 3 J.J.J.J.J.J.J.J.J.J.J.J.N.J.J.q.- 7 5 7 - v.J.J.J.J.J.J.J.J.J.J.J.J.",
"J.J.J.J.J.J.J.J.J.J.J.s.# 7 5 5 X.J.N.J.X.7 5 7 6 7 7 6 5 7 %.J.J.J.J.J.J.J.J.J.J.M.J.J.M.J.J.*.7 5 7 # s.J.J.J.J.J.J.J.J.J.J.J.",
"J.J.J.J.J.J.J.J.J.J.s.$ 6 6 t e.J.N.N.J.# 7 5 7 6 7 6 7 5 7 & J.J.J.J.J.J.J.J.J.J.J.J.N.J.J.J.J.%.8 6 7 $ s.J.J.J.J.J.J.J.J.J.J.",
"J.J.J.J.J.J.J.J.J.M.# 7 6 X q.J.N.J.J.s.t 7 7 7 6 6 6 6 6 7 $ J.J.J.J.J.J.J.J.J.r.p b n M 4.v.J.J.8.w 6 6 - J.J.J.J.J.J.J.J.J.J.",
"J.J.J.J.J.J.J.J.J.& 6 6 X q.J.N.J.J.J.s.t 7 7 7 7 6 7 7 7 7 # J.J.J.J.J.J.J.J.6.B C C C C C b l.J.J.e.8 5 7 , J.J.J.J.J.J.J.J.J.",
"J.J.J.J.J.J.J.J.X.7 5 5 e.J.N.J.J.J.J.J.# 7 7 7 6 7 6 7 5 7 , J.N.J.J.J.J.J.u.C C A S H V B D c J.N.J.%.7 5 7 @.J.J.J.J.J.J.J.J.",
"J.J.J.J.J.J.J.q.8 6 6 X.J.N.J.J.J.J.J.J.X.7 6 7 7 7 7 6 7 9 q.J.J.J.J.J.J.J.R C B P [ | ( G B D -.J.x.J.3 7 6 t f.J.J.J.J.J.J.J.",
"J.J.J.J.J.J.J.- 6 6 & J.J.J.J.J.J.J.J.J.J.< 7 6 7 7 7 6 7 @.J.J.J.J.J.J.J.l.x C F ] | } | ! A C d J.N.J.J.# 6 7 < J.J.J.J.J.J.J.",
"J.J.J.J.N.J.%.7 7 8 q.J.J.J.J.J.J.J.J.J.N.J., 7 5 7 6 7 O.J.J.J.J.J.J.J.J.r.B C J | } } | ( B C p J.M.J.J.8.5 7 7 e.J.J.J.J.J.J.",
"J.J.J.J.J.J.# 7 7 *.J.N.J.J.J.J.J.J.J.J.N.J.X.7 5 7 7 5 q.J.J.J.J.J.J.J.J.4.C C Z _ | | | I A C 2.J.N.J.N.J., 7 7 ; J.J.J.J.J.J.",
"J.J.J.J.J.%.7 7 X s.J.J.J.J.J.J.J.J.J.J.N.J. .7 5 7 7 6 q.J.J.J.J.N.J.Z.W C C C C K ( ` I C C B i.J.J.J.J.J.q.8 6 5 8.J.J.J.J.J.",
"J.J.J.J.J.& 7 7 3 J.N.J.J.J.J.J.J.J.J.J.N.J. .7 5 7 7 6 q.J.J.J.N.J.i.b C B C C C B B B B B C d J.M.J.J.J.N.J.< 7 7 3 J.N.J.J.J.",
"J.J.J.J.s.t 7 6 8.J.J.J.J.J.J.J.J.J.J.J.N.J.X.7 5 6 7 6 q.J.N.J.J.6.A C B C C C B C C C C C d J.J.J.J.J.J.J.J.%.7 7 o x.J.J.J.J.",
"J.J.J.J.%.7 7 # J.J.J.J.J.J.J.J.J.J.J.J.N.J. .7 5 7 7 6 q.J.J.N.p C C C C B C W r.2.Q W d i.J.J.J.J.J.J.J.J.J.N.+ 6 7 e.J.N.J.J.",
"J.J.N.J.3 7 7 3 J.N.J.J.J.J.J.J.J.J.J.J.N.J. .7 5 7 7 5 q.J.r.M C B C C C C 4.J.J.J.J.J.J.J.J.J.J.J.J.J.J.J.N.J., 6 7 *.J.N.J.J.",
"J.J.J.J.# 7 7 %.J.J.J.J.J.J.J.J.J.J.J.J.N.J. .7 5 7 7 7 d.-.x C B C B C z -.J.M.J.N.M.J.M.J.J.J.J.J.J.J.J.J.N.J.@.7 7 - J.J.J.J.",
"J.J.J.v.X 7 8 f.J.J.J.J.J.J.J.J.J.J.J.J.N.J. .7 5 7 7 8 y V C B C B C R l.J.M.J.J.J.J.J.J.J.J.J.J.J.J.J.J.J.J.J.q.6 7 o N.J.J.J.",
"J.J.J.q.8 7 + N.J.J.J.J.J.J.J.J.J.J.J.J.N.J. .7 6 7 6 7 j D C B C C d J.J.J.J.J.J.J.J.J.J.J.J.J.J.J.J.J.J.J.J.J.s.X 6 w a.J.J.J.",
"J.N.J.e.7 7 # J.J.J.J.J.J.J.J.J.J.J.J.J.N.J. .7 5 7 7 7 j D C C N 6.J.N.J.J.J.J.J.J.J.J.J.J.J.J.J.J.J.J.J.J.J.J.J.+ 6 7 8.J.J.J.",
"J.J.J.f.X.X.%.J.J.J.J.J.J.J.J.J.J.J.J.J.N.J.X.7 5 7 7 7 j D C g r.J.M.J.J.J.J.J.J.J.J.J.J.J.J.J.J.J.J.J.J.J.J.J.J.%.X.X.s.J.J.J.",
"J.J.J.J.J.J.J.J.J.J.J.J.J.J.J.J.J.J.J.J.N.J.X.7 5 7 7 7 j D C 2.J.N.J.J.J.J.J.J.J.J.J.J.J.J.J.J.J.J.J.J.J.J.J.J.J.J.J.J.J.J.J.J.",
"J.J.J.J.M.x.N.J.J.J.J.J.J.J.J.J.J.J.J.J.N.J. .7 5 7 7 7 j D C C p N.J.J.J.J.J.J.J.J.J.J.J.J.J.J.J.J.J.J.J.J.J.J.J.N.x.x.J.J.J.J.",
"J.J.J.8.o r , J.N.J.J.J.J.J.J.J.J.J.J.J.N.J. .7 5 7 7 7 j D C B C M l.J.N.J.J.J.J.J.J.J.J.J.J.J.J.J.J.J.J.J.J.J.J.& r X 8.J.J.J.",
"J.J.J.q.7 7 # J.J.J.J.J.J.J.J.J.J.J.J.J.N.J.X.7 5 7 7 7 j D C C B C z -.J.N.J.J.J.J.J.J.J.J.J.J.J.J.J.J.J.J.J.J.J.+ 7 7 q.J.J.J.",
"J.J.J.a.w 7 + N.J.J.J.J.J.J.J.J.J.J.J.J.N.J.X.7 5 6 7 8 f D B C C C C C 4.J.J.M.J.J.J.J.J.J.J.J.J.J.J.J.J.J.J.J.s.w 7 t s.J.J.J.",
"J.J.J.M.o 7 9 q.J.J.J.J.J.J.J.J.J.J.J.J.N.J. .7 5 7 7 5 q.d C C C C C V C W v.J.N.N.J.J.J.M.J.J.J.J.J.J.J.J.N.J.e.6 7 + J.J.J.J.",
"J.J.J.J.- 7 7 O.J.J.J.J.J.J.J.J.J.J.J.J.N.J. .7 5 7 7 5 q.J.6.A C B C C B C b i.J.J.J.J.J.J.J.J.J.J.J.J.J.J.N.J. .7 7 & J.J.J.J.",
"J.J.N.J.*.6 7 , J.J.J.J.J.J.J.J.J.J.J.J.N.J. .7 5 7 7 5 q.J.J.u.n C B C C B C A 6.6.R b M p i.J.J.J.J.J.J.J.J.J.- 7 7 X.J.N.J.J.",
"J.J.N.J.e.7 7 X v.J.J.J.J.J.J.J.J.J.J.J.N.J. .7 5 7 7 5 q.J.N.J.l.R C B C C C C C C C C C C C 2.J.J.J.J.J.J.J.q.8 7 5 q.J.J.J.J.",
"J.J.J.J.M.+ 7 7 O.J.J.J.J.J.J.J.J.J.J.J.N.J. .7 5 7 7 6 q.J.J.J.J.J.d C C C C C C C B G Z A C C -.J.J.J.J.N.J.*.7 7 # J.J.J.J.J.",
"J.J.J.N.J.3 7 7 - J.J.J.J.J.J.J.J.J.J.J.N.J. .7 5 7 7 6 q.J.J.J.J.N.J.6.A C C C C G / } ' P B C R J.J.J.J.J.x.o 7 7 X.J.N.J.J.J.",
"J.J.J.J.J.q.5 7 7 %.J.J.J.J.J.J.J.J.J.J.N.J.X.7 5 7 7 6 q.J.J.J.J.J.N.J.i.n C V C ~ | | | } H C z f.J.J.N.J.X.7 6 X s.J.J.J.J.J.",
"J.J.J.J.J.J.& 7 7 # J.J.J.J.J.J.J.J.J.J.J.s.- 7 7 7 6 7 3 J.J.J.J.J.J.N.J.l.b C C ) | } } | L C A l.J.J.J.s.X 7 6 3 J.J.J.J.J.J.",
"J.J.J.J.J.J.q.8 6 7 X.J.N.J.J.J.J.J.J.J.f.o 7 6 7 7 7 6 7 < J.J.J.J.J.J.N.J.W C C ~ | | | [ F C z Z.J.N.J., 7 6 X s.J.J.J.J.J.J.",
"J.J.J.J.J.J.J.3 7 5 8 8.J.J.J.J.J.J.J.J.; 7 5 6 7 7 7 7 5 7 O.J.N.J.J.J.N.J.2.C B F ^ ] ) L A C Q J.M.J.O.7 5 7 X.J.N.J.J.J.J.J.",
"J.J.J.J.J.J.J.v.+ 7 7 + n.J.J.J.J.J.J.f.8 7 7 7 7 6 7 7 6 7 ; J.J.J.J.J.J.J.Z.b C B B Z B A C x r.J.J.q.t 6 6 - J.J.J.J.J.J.J.J.",
"J.J.J.J.J.J.J.J.e.7 5 7 - J.J.J.J.J.J.%.7 6 6 6 6 6 7 7 7 7 $ J.J.J.J.J.J.J.J.r.b C C C C C z u.J.J.s.+ 6 6 X q.J.J.J.J.J.J.J.J.",
"J.J.J.J.J.J.J.N.J.*.6 8 7 & J.J.J.J.J.8.7 6 7 7 6 6 6 7 5 7 # J.J.J.J.J.J.J.J.J.v.2.W g Q 2.f.J.J.s.# 6 5 6 %.J.J.J.J.J.J.J.J.J.",
"J.J.J.J.J.J.J.J.J.J.< 7 8 7 - x.J.N.J.n.X 7 6 7 7 7 7 7 5 7 3 J.N.J.J.J.J.J.J.J.J.J.J.J.J.J.N.J.q.+ 6 8 6 X.J.N.J.J.J.J.J.J.J.J.",
"J.J.J.J.J.J.J.J.J.J.J.; 7 8 7 $ q.J.M.J.3 7 5 6 6 7 6 5 6 w q.J.J.J.J.J.J.J.J.J.J.M.J.J.Z.M.J.%.t 7 5 6 *.J.N.J.J.J.J.J.J.J.J.J.",
"J.J.J.J.J.J.J.J.J.J.J.N.& 7 8 7 8 X.J.J.N.- 7 6 6 6 7 7 5 %.J.J.J.J.J.J.J.J.J.J.J.J.N.J.J.v.3 7 6 5 7  .J.N.J.J.J.J.J.J.J.J.J.J.",
"J.J.J.J.J.J.J.J.J.J.J.J.J.: 7 5 5 7 # 8.J.J.X.o 6 6 8 - q.J.J.J.J.J.J.J.J.J.J.N.J.J.J.J.@.X 6 5 6 8 @.J.N.J.J.J.J.J.J.J.J.J.J.J.",
"J.J.J.J.J.J.J.J.J.J.J.J.J.J.X.8 6 5 7 6 - %.J.J.s.q.s.J.J.N.N.N.N.N.N.N.J.J.J.J.J.s.X.+ 7 6 5 6 + q.J.N.J.J.J.J.J.J.J.J.J.J.J.J.",
"J.J.J.J.J.J.J.J.J.J.J.J.J.N.J.q.- 6 6 6 7 6 o 3 8.x.J.J.J.J.J.J.J.J.J.J.J.J.f.@.& t 6 7 6 7 5 3 M.J.J.J.J.J.J.J.J.J.J.J.J.J.J.J.",
"J.J.J.J.J.J.J.J.J.J.J.J.J.J.J.J.J.O.+ 7 7 6 6 6 7 w # & *.X.@.O.O.@. .3 ; + 9 7 7 6 6 7 6 & q.J.J.J.J.J.J.J.J.J.J.J.J.J.J.J.J.J.",
"J.J.J.J.J.J.J.J.J.J.J.J.J.J.J.J.J.J.N.@.# 6 7 6 6 6 6 6 6 6 7 7 7 7 7 7 7 7 7 7 7 6 X , q.J.J.J.J.J.J.J.J.J.J.J.J.J.J.J.J.J.J.J.",
"J.J.J.J.J.J.J.J.J.J.J.J.J.J.J.J.J.J.J.J.J.q.*.# 8 6 6 6 7 7 7 7 7 7 7 7 7 7 5 + < %.v.J.J.J.J.J.J.J.J.J.J.J.J.J.J.J.J.J.J.J.J.J.",
"J.J.J.J.J.J.J.J.J.J.J.J.J.J.J.J.J.J.J.N.J.J.J.J.s.%.X.3 & - # # # - & ,  .%.q.J.J.J.J.N.J.J.J.J.J.J.J.J.J.J.J.J.J.J.J.J.J.J.J.J.",
"J.J.J.J.J.J.J.J.J.J.J.J.J.J.J.J.J.J.J.J.J.J.N.J.J.J.J.J.J.J.J.J.J.J.J.J.J.J.J.J.N.J.J.J.J.J.J.J.J.J.J.J.J.J.J.J.J.J.J.J.J.J.J.J.",
"J.J.J.J.J.J.J.J.J.J.J.J.J.J.J.J.J.J.J.J.J.J.J.J.J.J.N.N.J.J.J.J.J.J.J.N.N.J.J.J.J.J.J.J.J.J.J.J.J.J.J.J.J.J.J.J.J.J.J.J.J.J.J.J.",
"J.J.J.J.J.J.J.J.J.J.J.J.J.J.J.J.J.J.J.J.J.J.J.J.J.J.J.J.J.J.J.J.J.J.J.J.J.J.J.J.J.J.J.J.J.J.J.J.J.J.J.J.J.J.J.J.J.J.J.J.J.J.J.J.",
"J.J.J.J.J.J.J.J.J.J.J.J.J.J.J.J.J.J.J.J.J.J.J.J.J.J.J.J.J.J.J.J.J.J.J.J.J.J.J.J.J.J.J.J.J.J.J.J.J.J.J.J.J.J.J.J.J.J.J.J.J.J.J.J.",
"J.J.J.J.J.J.J.J.J.J.J.J.J.J.J.J.J.J.J.J.J.J.J.J.J.J.J.J.J.J.J.J.J.J.J.J.J.J.J.J.J.J.J.J.J.J.J.J.J.J.J.J.J.J.J.J.J.J.J.J.J.J.J.J."
};
