/* XPM */
static const char *bitcoin16[] = {
/* columns rows colors chars-per-pixel */
"16 16 147 2 ",
"   c #06198D",
".  c #071A8D",
"X  c #071286",
"o  c #091388",
"O  c #0A1488",
"+  c #071A8C",
"@  c #07198C",
"#  c #07198C",
"$  c #071A8C",
"%  c #090D85",
"&  c #071287",
"*  c #07198C",
"=  c #07198C",
"-  c #07198C",
";  c #071A8D",
":  c #071A8D",
">  c #071A8D",
",  c #0B1388",
"<  c #07198D",
"1  c #07198B",
"2  c #071A8C",
"3  c #071A8C",
"4  c #07198C",
"5  c #071A8C",
"6  c #071A8D",
"7  c #0C1085",
"8  c #07198C",
"9  c #07198C",
"0  c #071A8D",
"q  c #07198C",
"w  c #071A8D",
"e  c #061F90",
"r  c #071B8D",
"t  c #071D8E",
"y  c #07198C",
"u  c #07198B",
"i  c #07198C",
"p  c #071489",
"a  c #07148A",
"s  c #07198C",
"d  c #07198D",
"f  c #071A8D",
"g  c #071B8E",
"h  c #062091",
"j  c #062393",
"k  c #01D5FF",
"l  c #01C0F4",
"z  c #01C0F4",
"x  c #00CBFC",
"c  c #00C9FC",
"v  c #01CDFC",
"b  c #39D5FA",
"n  c #01D1FF",
"m  c #01D1FF",
"M  c #56D9FA",
"N  c #5BDFFC",
"B  c #53E1FE",
"V  c #64DCFA",
"C  c #7FE5FC",
"Z  c #4FEAFF",
"A  c #85E3FA",
"S  c #071A8D",
"D  c #07198D",
"F  c #07198B",
"G  c #07198D",
"H  c #071C8E",
"J  c #061C8E",
"K  c #071D8F",
"L  c #071A8D",
"P  c #072493",
"I  c #100075",
"U  c #10037D",
"Y  c #061C8E",
"T  c #061C8D",
"R  c #07198C",
"E  c #071489",
"W  c #071187",
"Q  c #071A8C",
"!  c #07198C",
"~  c #07198C",
"^  c #07198C",
"/  c #071A8D",
"(  c #061C8D",
")  c #071D8E",
"_  c #071A8D",
"`  c #07198C",
"'  c #0D1287",
"]  c #051D8D",
"[  c #0358B4",
"{  c #072091",
"}  c #02A8E4",
"|  c #01C1EE",
" . c #00BAF4",
".. c #02B1EB",
"X. c #00C8FC",
"o. c #00C3F9",
"O. c #01CCFB",
"+. c #00C7FC",
"@. c #00F4FF",
"#. c #07198C",
"$. c #07198C",
"%. c #072090",
"&. c #07198C",
"*. c #071A8C",
"=. c #071A8D",
"-. c #072391",
";. c #007DC5",
":. c #00A7E9",
">. c #06E0FF",
",. c #00DDFF",
"<. c cyan",
"1. c #071A8D",
"2. c #071A8D",
"3. c #07198D",
"4. c #08006F",
"5. c #071A8C",
"6. c #071A8C",
"7. c #081A8D",
"8. c #071A8D",
"9. c #07198C",
"0. c #071988",
"q. c #072B98",
"w. c #00B6FB",
"e. c #00B5FD",
"r. c #1EFFFF",
"t. c cyan",
"y. c #071A8D",
"u. c #0D003F",
"i. c #062291",
"p. c #061A8D",
"a. c #072F98",
"s. c #071B8E",
"d. c #071A8D",
"f. c #048FC1",
"g. c #07198C",
"h. c #061F90",
"j. c #071A8A",
"k. c #071A8D",
"l. c #049DDB",
"z. c #06198B",
"x. c #071A8C",
"c. c #0480CB",
"v. c #01C9FA",
"b. c #170000",
"n. c #062797",
"m. c #01DDF8",
"M. c None",
/* pixels */
"M.M.M.M.M.M.M.d.d.M.M.M.M.M.M.M.",
"M.M.M.M.2.F u w - > { q.M.M.M.M.",
"M.M.M._ 4 * < *.M.0.I % _ M.M.M.",
"M.M.F * 9.. s - M.f.@.| & F M.M.",
"M.&.1 k.M.4 s { M.o.A B :., $.M.",
"M.8 I M.M.~ s u.>.x N b M.' r M.",
"4.4 d.M.M.J a ..m O.e.w.M.d.4 9.",
"2._ M.k.M.W j l ,.M.M.M.M.M.Q 6.",
"2.F M.k.M.E j z k x.M.M.M.M.S 2.",
"9.4 d.M.M.J p } n v X.+.M.g.2 y.",
"M.9 _ M.M.L s 4.r.c C V <.U t M.",
"M.=.$ 9.d.  s e M. .M Z ;.X -.M.",
"M.M.~ $ *.# s i M.M.t.[ X R M.M.",
"M.M.M.R @ * q $.$.Y 7 O ] M.M.M.",
"M.M.M.M.g.~ u - - 9 _ d.M.M.M.M.",
"M.M.M.M.M.M.M.M.M.M.M.M.M.M.M.M."
};
