/* XPM */
static const char *bitcoin32[] = {
/* columns rows colors chars-per-pixel */
"32 32 137 2 ",
"   c #07168B",
".  c #07198C",
"X  c #071B8D",
"o  c #07198B",
"O  c #07198C",
"+  c #071A8C",
"@  c #07198C",
"#  c #071A8D",
"$  c #071A8C",
"%  c #07198C",
"&  c #071A8D",
"*  c #07198C",
"=  c #07198D",
"-  c #07198C",
";  c #07198D",
":  c #07198C",
">  c #071A8D",
",  c #071A8D",
"<  c #071A8C",
"1  c #07198C",
"2  c #02ACE8",
"3  c #071A8C",
"4  c #071A8D",
"5  c #071A8D",
"6  c #07198C",
"7  c #071A8C",
"8  c #071A8D",
"9  c #072192",
"0  c #01CCFB",
"q  c #06CEFC",
"w  c #00CDFC",
"e  c #02BAF0",
"r  c #01BAF1",
"t  c #00CAFC",
"y  c #01BBF2",
"u  c #01CCFC",
"i  c #01CCFC",
"p  c #01CCFC",
"a  c #00C9FA",
"s  c #00CBFD",
"d  c #01CFFC",
"f  c #01CCFB",
"g  c #01D4FF",
"h  c #00CCFC",
"j  c #02CDFC",
"k  c #09D0FC",
"l  c #00CCFC",
"z  c #01D2FF",
"x  c #01D2FF",
"c  c #14D1FC",
"v  c #1ED3FC",
"b  c #2ED6FC",
"n  c #38D8FC",
"m  c #4CDCFC",
"M  c #54DDFC",
"N  c #60DFFC",
"B  c #72E3FC",
"V  c #7BE4FC",
"C  c #00CCFC",
"Z  c #01CDFC",
"A  c #00CAFA",
"S  c #01CCFC",
"D  c #01CDFC",
"F  c #86E6FC",
"G  c #8BE8FC",
"H  c #B8EFFB",
"J  c #CEF5FB",
"K  c #ECF9FB",
"L  c #EAF8FB",
"P  c #FFFFFB",
"I  c #FAFDFB",
"U  c #071A8D",
"Y  c #07198D",
"T  c #07198C",
"R  c #071A8D",
"E  c #071A8E",
"W  c #07198C",
"Q  c #07198D",
"!  c #07198D",
"~  c #071D8E",
"^  c #06188C",
"/  c #062190",
"(  c #071A8D",
")  c #071A8D",
"_  c #07CAF9",
"`  c #05CFFC",
"'  c #01CFFD",
"]  c #02CAFA",
"[  c #00C5F7",
"{  c #01CEFC",
"}  c #02CDFC",
"|  c #07198C",
" . c #071A8E",
".. c #07198D",
"X. c #071D8F",
"o. c #07198C",
"O. c #09CFFC",
"+. c #0ACEFC",
"@. c #0483CE",
"#. c #01DAFF",
"$. c #00E1FF",
"%. c #0CD2FD",
"&. c #07178B",
"*. c #07178A",
"=. c #071C8E",
"-. c #02C1F5",
";. c #02D0FD",
":. c #17D8FD",
">. c #0D208E",
",. c #03C2F2",
"<. c #071A8D",
"1. c #051585",
"2. c #071B90",
"3. c #07198D",
"4. c #062895",
"5. c #071A8D",
"6. c #0464BB",
"7. c #0391D7",
"8. c #0471C3",
"9. c #0384CE",
"0. c #01CDFC",
"q. c #0299E3",
"w. c #01CEFC",
"e. c #73E3FB",
"r. c cyan",
"t. c #071A8D",
"y. c #071A8D",
"u. c #036EC3",
"i. c #0187D2",
"p. c #01CEFC",
"a. c #01CDFC",
"s. c #9EEEFB",
"d. c #071D91",
"f. c #EF528B",
"g. c #04CFFC",
"h. c None",
"j. c #062895",
/* pixels */
"h.h.h.h.h.h.h.h.h.h.h.h.3.3.3.h.h.3.3.3.h.h.h.h.h.h.h.h.h.h.h.h.",
"h.h.h.h.h.h.h.h.h.3.h.h.h.h.h.h.h.h.h.h.h.3.h.h.h.h.h.h.h.h.h.h.",
"h.h.h.h.h.h.h.h.h.h.h.*.E 1 - $ $ - > E *.h.h.h.h.h.h.h.h.h.h.h.",
"h.h.h.h.h.h.h.h.h.X.; 3 3 8 $ - - # 8 3 3 - | h.h.h.h.h.h.h.h.h.",
"h.h.h.h.h.h.h.>.> 3 + ) Q =.h.h.h.h.h.X.U X 3 & >.h.3.h.h.h.h.h.",
"h.h.h.h.h.h.X.. 3 Q X.# 3 3 1 h.3.h.h.h.h.h.T 3 . | h.3.h.h.h.h.",
"h.h.h.h.h.o.5 # *.h.# 3 3 3 3 o.h.h.h.h.h.1.h.*.+ 5 o.h.h.h.h.h.",
"h.h.h.h.X.5 - 3.h.*.8 3 3 5 3 T h.3.h.:.S p a $.h.# 4 X.h.h.h.h.",
"h.h.h.>.+ + >.h.3.h.# 3 5 3 3 | h.3.h.S c F n p :.>.. + 3.h.h.h.",
"h.3.h.1 3 | h.3.h.h.X.8 3 3 T h.3.h.:.t G P J j ` h.^ 3 ) h.h.h.",
"h.h.*.5 & h.3.h.h.3.h.- 3 4 *.h.h.h.w j m L V j %.h.h.& 4 >.h.h.",
"3.h.T 3 | h.h.h.h.3.h.- 3 4 X.h.:.Z j h l j j w h.3.h.o.3 Q h.3.",
"3.h.- + h.h.h.h.h.h.h.- 3 4 *.$.p j j w O.} %.h.h.h.h.h.. - h.3.",
"h.3.4 , h.3.h.h.h.h.h.- 3   2 l j l } h.h.h.h.h.h.h.h.h.& 7 h.h.",
"h.*.3 T h.3.h.h.h.h.h.- 3 9 y x d O.h.r.h.3.h.h.h.h.3.h.) 3 *.h.",
"h.3.X.>.h.h.h.h.h.h.h.- 3 5 y d ,.h.r.h.h.h.h.h.h.h.h.h.>.X.3.h.",
"h.>.T X.h.h.h.h.h.h.h.- 3 9 r h 0 ,.h.y.h.h.h.h.h.h.h.h.X.T >.h.",
"h.*.3 T h.3.h.h.h.h.h.- 3 4 e x j d -.h.r.h.h.3.h.h.3.h.) 3 *.h.",
"h.h.7 & h.3.h.h.h.h.h.- 3 8 @.d j j p ` h.,.r.h.h.h.3.h.- . h.h.",
"3.h.- . h.h.h.h.h.h.h.- 3 4 *.r.S j j l S s s ] h.h.h.>.4 & h.3.",
"3.h.Q 3 ^ h.h.h.h.3.h.- 3 6 =.h.h.{ j h k B M j ` h.h.Q 3 ^ h.h.",
"h.h.>.7 # h.h.h.h.h.3.# 3 5 | h.r.h.` l N P I v w h.r.+ o h.h.h.",
"h.3.h.T 3 T h.3.h.h.& 3 5 3 . *.h.r.h.Z b L H k [ h.) 3 Q h.h.h.",
"h.h.h.h.- 3 | h.h.X.5 3 3 5 3 T h.3.h.` l k k Z h.^ 3 & h.h.h.h.",
"h.h.h.h.=.. 7 | h.=.4 3 5 5 3 Q h.3.h.h.O.] ` h.^ 3 + *.h.h.h.h.",
"h.h.h.h.h.| 8 5 Q h.1 3 3 3 # >.h.3.3.3.h.h.h.U 3 + =.h.h.h.h.h.",
"h.h.h.h.h.h.X.+ 3 - | ^ 1 Q 3.h.h.h.h.h.3.^ + 3 - *.h.h.h.h.h.h.",
"h.h.h.h.h.h.h.>.1 5 3 + ) ^ | X.X.o.T < 8 3 7 T h.h.h.h.h.h.h.h.",
"h.h.h.h.h.h.h.h.h.*.) + 3 3 3 3 3 3 3 5 # Q >.h.h.h.h.h.h.h.h.h.",
"h.h.h.h.h.h.h.h.3.h.h.h.*.o.Q T T ^ | >.h.h.h.3.h.h.h.h.h.h.h.h.",
"h.h.h.h.h.h.h.h.h.h.3.h.h.h.h.h.h.h.h.h.h.3.h.h.h.h.h.h.h.h.h.h.",
"h.h.h.h.h.h.h.h.h.h.h.h.h.3.3.3.3.3.3.h.h.h.h.h.h.h.h.h.h.h.h.h."
};
